!!!!SEGMENT: pl-sa--35-a-i-35_kaminski-f--koncik.krn
!!!cenid: 17xx:357
!!!COM: Kamiński, F.
!!!COM-rismid: pe41022861
!!!CDT:
!!!CNT:
!!!OTL: Koncik
!!!PDT:
!!!AGN: Sacred
!!!SMS-siglum: PL-SA
!!!SMS-shelfmark: 35/A I 35
!!!SMS-shelfwork: W
!!!@SMS-variant: Violino Primo.: PL-SA 35/A I 35:10-11; Violino Secundo.: PL-SA 35/A I 35:14-15; Baſso.: PL-SA 35/A I 35:18
!!!@SMS-altvar: Violino Primo.: PL-SA 35/A I 35:12-13; Violino Secundo.: PL-SA 35/A I 35:16-17; Baſso.: PL-SA 35/A I 35:19
!!!NIFC-rismid: 1001077275
!!!URL-scan: http://bc.bdsandomierz.pl/dlibra/publication/1302/edition/1270/content
!!!ONB-nifc: wpisane podwójne partie Basso oraz Violino I i II, bo trochę się różnią
!!!key:
**kern	**dynam	**kern	**dynam	**kern	**dynam	**kern	**dynam	**kern	**dynam	**kern	**dynam	**kern	**kern	**kern	**dynam	**kern	**dynam
*part10	*part10	*part9	*part9	*part8	*part8	*part7	*part7	*part6	*part6	*part5	*part5	*part4	*part3	*part2	*	*part1	*
*group3	*	*group3	*	*group3	*	*group3	*	*group3	*	*group3	*	*group2	*group2	*group1	*	*group1	*
*staff10	*	*staff9	*	*staff8	*	*staff7	*	*staff6	*	*staff5	*	*staff4	*staff3	*staff2	*	*staff1	*
*Iempty	*	*Iempty	*	*Ivioln	*	*Ivioln	*	*Ivioln	*	*Ivioln	*	*Icor	*Icor	*Iclars	*	*Iclars	*
*I"Baſso.	*	*I"Baſso.	*	*I"Violino Secundo.	*	*I"Violino Secundo.	*	*I"Violino Primo.	*	*I"Violino Primo.	*	*I"Corno. 2do	*I"Corno 1mo	*I"Clarinetto. 2do	*	*I"Clarinetto. 1mo	*
*I'B.	*	*I'B.	*	*I'vl II	*	*I'vl II	*	*I'vl I	*	*I'vl I	*	*I'cor 2	*I'cor 1	*I'cl 2	*	*I'cl 1	*
*clefF4	*	*clefF4	*	*clefG2	*	*clefG2	*	*clefG2	*	*clefG2	*	*clefG2	*clefG2	*clefG2	*	*clefG2	*
*	*	*	*	*	*	*	*	*	*	*	*	*ITrd1c2	*ITrd1c2	*ITrd1c2	*	*ITrd1c2	*
*k[b-e-]	*	*k[b-e-]	*	*k[b-e-]	*	*k[b-e-]	*	*k[b-e-]	*	*k[b-e-]	*	*k[b-e-]	*k[b-e-]	*k[b-e-]	*	*k[b-e-]	*
*B-:	*	*B-:	*	*B-:	*	*B-:	*	*B-:	*	*B-:	*	*B-:	*B-:	*B-:	*	*B-:	*
*M2/4	*	*M2/4	*	*M2/4	*	*M2/4	*	*M2/4	*	*M2/4	*	*M2/4	*M2/4	*M2/4	*	*M2/4	*
*>[A,A,B,B,A,B,C,C,D,D,C,D,E,E,F,F,E,F,G,G,H,H,G,H,I,I,J,J,I,J,K,K,L,L,K,L,M,A,B]	*	*>[A,A,B,B,A,B,C,C,D,D,C,D,E,E,F,F,E,F,G,G,H,H,G,H,I,I,J,J,I,J,K,K,L,L,K,L,M,A,B]	*	*>[A,A,B,B,A,B,C,C,D,D,C,D,E,E,F,F,E,F,G,G,H,H,G,H,I,I,J,J,I,J,K,K,L,L,K,L,M,A,B]	*	*>[A,A,B,B,A,B,C,C,D,D,C,D,E,E,F,F,E,F,G,G,H,H,G,H,I,I,J,J,I,J,K,K,L,L,K,L,M,A,B]	*	*>[A,A,B,B,A,B,C,C,D,D,C,D,E,E,F,F,E,F,G,G,H,H,G,H,I,I,J,J,I,J,K,K,L,L,K,L,M,A,B]	*	*>[A,A,B,B,A,B,C,C,D,D,C,D,E,E,F,F,E,F,G,G,H,H,G,H,I,I,J,J,I,J,K,K,L,L,K,L,M,A,B]	*	*>[A,A,B,B,A,B,C,C,D,D,C,D,E,E,F,F,E,F,G,G,H,H,G,H,I,I,J,J,I,J,K,K,L,L,K,L,M,A,B]	*>[A,A,B,B,A,B,C,C,D,D,C,D,E,E,F,F,E,F,G,G,H,H,G,H,I,I,J,J,I,J,K,K,L,L,K,L,M,A,B]	*>[A,A,B,B,A,B,C,C,D,D,C,D,E,E,F,F,E,F,G,G,H,H,G,H,I,I,J,J,I,J,K,K,L,L,K,L,M,A,B]	*	*>[A,A,B,B,A,B,C,C,D,D,C,D,E,E,F,F,E,F,G,G,H,H,G,H,I,I,J,J,I,J,K,K,L,L,K,L,M,A,B]	*
=1	=1	=1	=1	=1	=1	=1	=1	=1	=1	=1	=1	=1	=1	=1	=1	=1	=1
*>A	*	*>A	*	*>A	*	*>A	*	*>A	*	*>A	*	*>A	*>A	*>A	*	*>A	*
!LO:TX:a:t=P:problem=mixed beam	!	!LO:TX:a:t=P:problem=mixed beam	!	!	!	!LO:TX:a:i:t=Andante	!	!	!	!	!	!	!	!	!	!	!
!LO:TX:a:i:t=Andante	!	!LO:TX:a:i:t=Andante	!	!LO:TX:a:i:t=Andante&colon;	!LO:DY:t=p.	!LO:TX:a:i:t=Thema	!	!LO:TX:a:i:t=Andante	!	!LO:TX:a:i:t=Tchema Andante	!	!LO:TX:a:i:t=Andante	!LO:TX:a:i:t=Andante	!	!	!	!
!LO:TX:a:i:t=Kącik \n Thema	!	!LO:TX:a:i:t=Tchema Kącik	!	!LO:TX:a:i:t=Tchema Kącik	!	!LO:TX:a:i:t=Kątek	!	!LO:TX:a:i:t=Tchema Kącik	!	!LO:TX:a:i:t=Kątik	!	!LO:TX:a:i:t=Tchema Kącik	!LO:TX:a:i:t=Tchema Kącik	!LO:TX:a:i:t=Kącik Tchema Andata	!	!LO:TX:a:i:t=Kącik Tchema Andante	!
8BB-/L	.	8BB-/L	.	4d/	p	4b-\	.	4b-\	.	4b-\	.	4d/	4b-\	4b-\	.	4bb-\	.
8B-\	.	8B-\J	.	.	.	.	.	.	.	.	.	.	.	.	.	.	.
8F\	.	8F\L	.	8.d/L	.	(8.dd\L	.	8.b-\L	.	8.bb-\L	.	8.d/L	8.b-\L	(8.dd\L	.	8.bb-\L	.
8D\J	.	8D\J	.	.	.	.	.	.	.	.	.	.	.	.	.	.	.
.	.	.	.	16d/Jk	.	16dd\Jk)	.	16b-\Jk	.	16bb-\Jk	.	16d/Jk	16b-\Jk	16dd\Jk)	.	16bb-\Jk	.
=2	=2	=2	=2	=2	=2	=2	=2	=2	=2	=2	=2	=2	=2	=2	=2	=2	=2
*	*	*	*	*	*	*	*	*	*	*	*	*	*2\right	*	*	*	*
4BB-/	.	4BB-/	.	8f/L	.	(8ff\L	.	8b-/L	.	(8bb-\L	.	2d/	2b-\	(8ff\L	.	(8bb-\L	.
.	.	.	.	8d/J	.	8dd\J)	.	8f/J	.	8ff\J)	.	.	.	8dd\J)	.	8ff\J)	.
4r	.	4r	.	4d/	.	4dd\	.	4f/	.	4ff\	.	.	.	4dd\	.	4ff\	.
=3	=3	=3	=3	=3	=3	=3	=3	=3	=3	=3	=3	=3	=3	=3	=3	=3	=3
4F\	.	4F\	.	8d/L	.	(8dd\L	.	8f/L	.	8ff\L	.	8dd\	8ff\	(8dd\L	.	(8ff\L	.
.	.	.	.	(8e-/	.	8ee-\)	.	8g/	.	(8gg\	.	8r	8r	8ee-\	.	8gg\)	.
4F\	.	4F\	.	8d/	.	8dd\	.	8f/	.	8ff\)	.	4r	4r	8dd\)	.	8ff\|	.
.	.	.	.	8c/J)	.	8cc\J	.	8e-/J	.	8ee-\J	.	.	.	8cc\J	.	8ee-\J|	.
=4	=4	=4	=4	=4	=4	=4	=4	=4	=4	=4	=4	=4	=4	=4	=4	=4	=4
!LO:TX:a:t=P:problem=mixed beam	!	!LO:TX:a:t=P:problem=mixed beam	!	!	!	!	!	!	!	!	!	!LO:TX:a:t=1	!LO:TX:a:t=1	!	!	!	!
8BB-/L	.	8BB-/L	.	8c/L	.	(8cc\L	.	8e-/L	.	(8ee-\L	.	2r	2r	(8cc\L	.	(8ee-\L	.
8B-\	.	8B-\	.	8B-/J	.	8b-\J)	.	8d/J	.	8dd\J)	.	.	.	8b-\J)	.	8dd\J)	.
8F\	.	8F\	.	4B-/	.	4b-\	.	4d/	.	4dd\	.	.	.	4b-\	.	4dd\|	.
8D\J	.	8D\J	.	.	.	.	.	.	.	.	.	.	.	.	.	.	.
=5	=5	=5	=5	=5	=5	=5	=5	=5	=5	=5	=5	=5	=5	=5	=5	=5	=5
4BB-/	.	4BB-/	.	8dd\	.	(8dd\L	.	4f/	.	8ff\L	.	4dd\	4ff\	(8dd\L	.	8ff\L|	.
.	.	.	.	8r	.	8b-\	.	.	.	8dd\	.	.	.	8b-\	.	8dd\|	.
4BB-/	.	4BB-/	.	8dd\	.	8cc\)	.	8r	.	8ee-\	.	8b-\L	8dd\L	8cc\	.	8ee-\|	.
.	.	.	.	8r	.	8dd\J	.	8f/	.	8ff\J	.	8ee-\J	8ee-\J	8dd\J)	.	8ff\J|	.
=6	=6	=6	=6	=6	=6	=6	=6	=6	=6	=6	=6	=6	=6	=6	=6	=6	=6
4E-\	.	4E-\	.	8f/	.	(8ee-\L	.	8g/L	.	8gg\L	.	8cc\	8gg\	(8ee-\L	.	8gg\L	.
.	.	.	.	4f/	.	8ff\	.	8a/	.	(8aa\	.	8r	8r	8ff\	.	8aa\	.
4E-\	.	4E-\	.	.	.	8gg\)	.	8b-/	.	8bb-\)	.	4r	4r	8gg\)	.	8bb-\	.
.	.	.	.	8f/	.	8ee-\J	.	8e-/J	.	8gg\J	.	.	.	8ee-\J	.	8gg\J	.
=7	=7	=7	=7	=7	=7	=7	=7	=7	=7	=7	=7	=7	=7	=7	=7	=7	=7
!	!	!	!	!	!	!	!	!LO:N:vis=4.	!	!	!	!	!	!	!	!	!
4F\	.	4F\	.	8dd\	.	(8dd\L	.	4f/	.	8ff\L	.	8ee-\	8ff\	(8dd\L	.	(8ff\L	.
.	.	.	.	8r	.	8cc\	.	.	.	8ee-\	.	8r	8r	8cc\)	.	8ee-\)	.
4F\	.	4F\	.	8cc\	.	8b-\	.	8r	.	8dd\	.	4r	4r	8b-'\	.	8dd\|	.
.	.	.	.	8r	.	8a\J)	.	8f/	.	8cc\J	.	.	.	8a'\J	.	8cc\J|	.
!	!	!LO:LB:g=original	!	!	!	!	!	!LO:LB:g=original	!	!	!	!	!	!	!	!	!
=8	=8	=8	=8	=8	=8	=8	=8	=8	=8	=8	=8	=8	=8	=8	=8	=8	=8
4BB-/	.	4BB-/	.	8cc\L	.	(8a\L	.	8aa\L	.	(8cc\L	.	8dd\	8ff\	(8a\L	.	(8cc\L	.
.	.	.	.	8b-\J	.	8b-\J)	.	8bb-\J	.	8b-\J)	.	8r	8r	8b-\J)	.	8b-\J)	.
.	.	.	.	.	.	.	.	.	.	.	.	(8qqf/	8qqcc/	.	.	.	.
4B-\	.	4B-\	.	4b-\	.	4b-\	.	4bb-\	.	4b-\	.	4d/)	4b-\	4b-\|	.	4b-\	.
!	!	!	!	!LO:LB:g=original	!	!	!	!	!	!	!	!LO:LB:g=original	!	!LO:LB:g=original	!	!LO:LB:g=original	!
=9:|!|:	=9:|!|:	=9:|!|:	=9:|!|:	=9:|!|:	=9:|!|:	=9:|!|:	=9:|!|:	=9:|!|:	=9:|!|:	=9:|!|:	=9:|!|:	=9:|!|:	=9:|!|:	=9:|!|:	=9:|!|:	=9:|!|:	=9:|!|:
*>B	*	*>B	*	*>B	*	*>B	*	*>B	*	*>B	*	*>B	*>B	*>B	*	*>B	*
!	!	!	!	!	!	!	!	!	!	!	!	!	!LO:TX:a:t=P:problem=mixed beam	!	!	!	!
!	!	!	!	!	!	!	!	!	!	!LO:TX:a:t=P:problem=mixed beam	!	!	!LO:TX:a:i:t=Solo	!LO:TX:a:t=4.	!	!LO:TX:a:t=4.	!
!	!	!	!	!	!LO:DY:t=f.	!	!	!	!	!	!	!	!	!LO:N:vis=00	!	!LO:N:vis=00	!
4BB-/	.	4BB-/	.	8b- 8d/	f	8B-/L	.	8bb- 8b-\	.	8B-/L	.	8B-/L	8B-/L	0r	.	0r	.
.	.	.	.	8r	.	8d/	.	8r	.	8b-\	.	8d/	8b-\	.	.	.	.
4BB-/	.	4BB-/	.	4r	.	8d/	.	4r	.	8b-\	.	8d/	8b-\	.	.	.	.
.	.	.	.	.	.	8d/J	.	.	.	8b-\J	.	8d/J	8b-\J	.	.	.	.
!	!	!	!	!	!	!	!	!	!	!LO:LB:g=original	!	!	!LO:LB:g=original	!	!	!	!
=10	=10	=10	=10	=10	=10	=10	=10	=10	=10	=10	=10	=10	=10	=10	=10	=10	=10
4C/	.	4C/	.	4f/	.	4f/	.	(8b-\L	.	(8b-\L	.	4f/	8b-\L	.	.	.	.
.	.	.	.	.	.	.	.	8a\J)	.	8a\J)	.	.	8a\J	.	.	.	.
4C/	.	4C/	.	4f/	.	4f/	.	4a\	.	4a\	.	4f/	4a\	.	.	.	.
!	!	!	!	!	!	!LO:LB:g=original	!	!	!	!	!	!	!	!	!	!	!
=11	=11	=11	=11	=11	=11	=11	=11	=11	=11	=11	=11	=11	=11	=11	=11	=11	=11
4AA/	.	4AA/	.	8f/	.	(8f/L	.	8a\	.	(8a\L	.	8f\L	8a\L	.	.	.	.
.	.	.	.	8r	.	8a/	.	8r	.	8cc\	.	8a\	8cc\	.	.	.	.
4AA/	.	4AA/	.	8cc\	.	8cc/)	.	8ee-\	.	8ee-\)	.	8cc\	8ee-\	.	.	.	.
.	.	.	.	8r	.	8cc/J	.	8r	.	8ee-\J	.	8cc\J	8ee-\J	.	.	.	.
=12	=12	=12	=12	=12	=12	=12	=12	=12	=12	=12	=12	=12	=12	=12	=12	=12	=12
!LO:TX:a:t=P:problem=mixed beam	!	!LO:TX:a:t=P:problem=mixed beam	!	!	!	!	!	!	!	!	!	!	!	!	!	!	!
8BB-/L	.	8BB-/L	.	8cc\L	.	(8cc\L	.	(8ee-\L	.	(8ee-\L	.	8cc\L	8ee-\L	.	.	.	.
8B-\J	.	8B-\J	.	8b-\J	.	8b-\J)	.	8dd\J)	.	8dd\J)	.	8b-\J	8dd\J	.	.	.	.
!LO:LB:g=original	!	!	!	!	!	!	!	!	!	!	!	!	!	!	!	!	!
!LO:TUP:a:problem=klamra łukowa	!	!LO:TUP:a:problem=klamra łukowa	!	!	!	!	!	!	!	!	!	!	!	!	!	!	!
12d\L	.	12d\L	.	4b-\	.	4b-\	.	4dd\	.	4dd\	.	4b-\	4dd\	.	.	.	.
12c\	.	12c\	.	.	.	.	.	.	.	.	.	.	.	.	.	.	.
12B-\J	.	12B-\J	.	.	.	.	.	.	.	.	.	.	.	.	.	.	.
=13	=13	=13	=13	=13	=13	=13	=13	=13	=13	=13	=13	=13	=13	=13	=13	=13	=13
4F\	.	4F\	.	8a/	.	8a/L	.	8cc\	.	(8cc\L	.	2f/	2f/	(8a\L	.	(8cc\L	.
.	.	.	.	8r	.	(8f/	.	8r	.	8a\	.	.	.	8f\	.	8a\)	.
4F\	.	4F\	.	8g/	.	8g/	.	8cc\	.	8b-\	.	.	.	8g\)	.	8b-\	.
.	.	.	.	8r	.	8a/J)	.	8r	.	8cc\J)	.	.	.	8a\J	.	8cc\J	.
=14	=14	=14	=14	=14	=14	=14	=14	=14	=14	=14	=14	=14	=14	=14	=14	=14	=14
4BB-/	.	4BB-/	.	8b-/	.	8b-\L	.	8dd\	.	(8dd\L	.	8A/	8f/	(8b-\L	.	(8dd\L	.
.	.	.	.	8r	.	(8cc\	.	8r	.	8een\	.	8r	8r	8cc\)	.	8eeX\)	.
4r	.	4r	.	8dd\	.	8dd\	.	8ff\	.	8ff\	.	4r	4r	8dd\|	.	8ff\	.
.	.	.	.	8r	.	8b-\J)	.	8r	.	8dd\J)	.	.	.	8b-\J|	.	8dd\J	.
=15	=15	=15	=15	=15	=15	=15	=15	=15	=15	=15	=15	=15	=15	=15	=15	=15	=15
4C/	.	4C/	.	8a/L	.	8a/L	.	8cc\L	.	8cc\L	.	8A/	8f/	8a/L	.	(8cc\L	.
.	.	.	.	8g/	.	(8g/	.	8b-\	.	(8b-\	.	8r	8r	8g/	.	8b-\)	.
4C/	.	4C/	.	8f/	.	8f/	.	8a\	.	8a\	.	4r	4r	8f/	.	8a\|	.
.	.	.	.	8en/J	.	8en/J)	.	8g\J	.	8g\J)	.	.	.	8eX/J	.	8g\J|	.
=16	=16	=16	=16	=16	=16	=16	=16	=16	=16	=16	=16	=16	=16	=16	=16	=16	=16
!	!	!	!	!	!	!	!	!	!	!	!	!LO:TX:a:t=1	!LO:TX:a:t=1	!	!	!	!
8F\L	.	8F\L	.	8e-/L	.	(8e-/L	.	8g/L	.	8g/L	.	2r	2r	8e-/L	.	8g/L	.
8E-X\	.	8E-X\	.	8f/J	.	8f/J)	.	8f/J	.	8f/J	.	.	.	8f/J	.	8f/J	.
8D\	.	8D\	.	4f/	.	4f/	.	4f/	.	4f/	.	.	.	4f/	.	4f/	.
!LO:TX:a:i:t=Da Capo	!	!LO:TX:a:i:t=Da Capo Tche\nma	!	!LO:TX:a:i:t=Da Capo \nTchema	!	!LO:TX:a:i:t=Da Capo	!	!LO:TX:a:i:t=Da Ca\npo\n Tche\nma	!	!LO:TX:a:i:t=Da Capo.	!	!LO:TX:a:i:t=Da Capo\n Tchema	!LO:TX:a:i:t=Da Capo Tchema	!LO:TX:a:i:t=Da Capo Tchema	!	!LO:TX:a:i:t=Da Capo Tchema	!
8C\J	.	8C\J	.	.	.	.	.	.	.	.	.	.	.	.	.	.	.
!LO:LB:g=original	!	!LO:LB:g=original	!	!LO:LB:g=original	!	!LO:LB:g=original	!	!LO:LB:g=original	!	!LO:LB:g=original	!	!LO:LB:g=original	!LO:LB:g=original	!LO:LB:g=original	!	!LO:LB:g=original	!
=17:|!	=17:|!	=17:|!	=17:|!	=17:|!	=17:|!	=17:|!	=17:|!	=17:|!	=17:|!	=17:|!	=17:|!	=17:|!	=17:|!	=17:|!	=17:|!	=17:|!	=17:|!
*>C	*	*>C	*	*>C	*	*>C	*	*>C	*	*>C	*	*>C	*>C	*>C	*	*>C	*
*	*	*	*	*	*	*	*	*	*	*	*	*	*	*2\right	*	*2\right	*
!LO:TX:a:i:t=Variatio 1ma	!LO:DY:t=p.	!LO:TX:a:i:t=Variatio. 1mo	!LO:DY:t=p.	!LO:TX:a:i:t=Vari\n 1mo	!	!LO:TX:a:i:t=Variatio 1mo	!	!LO:TX:a:i:t=Variatio.\n 1mo	!	!LO:TX:a:i:t=Variatio 1mo	!	!LO:TX:a:i:t=Vari \n1mo	!LO:TX:a:i:t=Variatio \n1mo	!LO:TX:a:i:t=Vari \n1mo	!	!LO:TX:a:i:t=Varia \n1mo	!
4BB-/	p	4BB-/	p	(8.b-\L	.	(8.b-\L	.	(8.dd\L	.	(8.dd\L	.	2d/	2b-\	2dd\	.	2ff\	.
.	.	.	.	16dd\Jk)	.	16dd\Jk)	.	16ff\Jk)	.	16ff\Jk)	.	.	.	.	.	.	.
4BB-/	.	4BB-/	.	16b-\LL	.	(16b-\LL	.	(16dd\LL	.	(16dd\LL	.	.	.	.	.	.	.
.	.	.	.	(16dd\	.	16dd\	.	16ff\	.	16gg\	.	.	.	.	.	.	.
.	.	.	.	16b-\	.	16b-\	.	16dd\)	.	16dd\	.	.	.	.	.	.	.
.	.	.	.	16dd\JJ)	.	16dd\JJ)	.	16ff\JJ	.	16ff\JJ)	.	.	.	.	.	.	.
=18	=18	=18	=18	=18	=18	=18	=18	=18	=18	=18	=18	=18	=18	=18	=18	=18	=18
4BB-/	.	4BB-/	.	16dd\LL	.	(16dd\LL	.	16bb-\LL	.	(16bb-\LL	.	2f/	2dd\	(16dd\LL	.	4bb-\	.
.	.	.	.	(16cc\	.	16cc\	.	16aa\	.	16aa\	.	.	.	16cc\	.	.	.
.	.	.	.	16dd\	.	16dd\	.	16bb-\	.	16bb-\	.	.	.	16dd\)	.	.	.
.	.	.	.	16cc\JJ)	.	16cc\JJ)	.	16aa\JJ	.	16aa\JJ)	.	.	.	16cc\JJ	.	.	.
4r	.	4r	.	16dd\LL	.	(16dd\LL	.	16bb-\LL	.	(16bb-\LL	.	.	.	16dd\LL|	.	(16bb-\LL	.
.	.	.	.	(16dd\	.	16dd\	.	(16ff\	.	16ff\	.	.	.	16dd\|	.	16ff\	.
.	.	.	.	16cc\	.	16cc\	.	16ee-\	.	16ee-\	.	.	.	(16cc\	.	16ee-\	.
.	.	.	.	16b-\JJ)	.	16b-\JJ)	.	16dd\JJ)	.	16dd\JJ)	.	.	.	16b-\JJ)	.	16dd\JJ)	.
=19	=19	=19	=19	=19	=19	=19	=19	=19	=19	=19	=19	=19	=19	=19	=19	=19	=19
!	!	!	!	!	!	!	!	!	!	!	!	!	!	!LO:TX:a:t=2.	!	!LO:TX:a:t=2.	!
!	!	!	!	!	!	!	!	!	!	!	!	!	!	!LO:N:vis=0	!	!LO:N:vis=0	!
4E-\	.	4E-\	.	8.cc\L	.	(8.cc\L	.	(8.ee-\L	.	(8.ee-\L	.	4f/	4cc\	1r	.	1r	.
.	.	.	.	16ee-\Jk	.	16ee-\Jk)	.	16gg\Jk)	.	16gg\Jk)	.	.	.	.	.	.	.
4E-\	.	4E-\	.	16cc\LL	.	(16cc\LL	.	(16ee-\LL	.	(16ee-\LL	.	4r	4r	.	.	.	.
.	.	.	.	(16ee-\	.	16ee-\	.	16gg\	.	16gg\	.	.	.	.	.	.	.
.	.	.	.	16a\	.	16a\	.	16cc\)	.	16cc\	.	.	.	.	.	.	.
.	.	.	.	16cc\JJ)	.	16cc\JJ)	.	16ee-\JJ	.	16ee-\JJ)	.	.	.	.	.	.	.
=20	=20	=20	=20	=20	=20	=20	=20	=20	=20	=20	=20	=20	=20	=20	=20	=20	=20
!LO:TX:a:t=P:problem=mixed beam	!	!LO:TX:a:t=P:problem=mixed beam	!	!	!	!	!	!	!	!	!	!LO:TX:a:t=1	!LO:TX:a:t=1	!	!	!	!
8F\L	.	8F\L	.	16b-\LL	.	(16b-\LL	.	(16dd\LL	.	(16dd\LL	.	2r	2r	.	.	.	.
.	.	.	.	(16dd\	.	16dd\	.	16ff\	.	16ff\	.	.	.	.	.	.	.
8FF/	.	8FF/	.	16f\	.	16g\	.	16a\	.	16a\	.	.	.	.	.	.	.
!	!	!	!	!	!	!	!	!LO:N:vis=16.	!	!	!	!	!	!	!	!	!
.	.	.	.	16a\JJ)	.	16a\JJ)	.	16cc\JJ)	.	16cc\JJ)	.	.	.	.	.	.	.
.	.	.	.	.	.	.	.	.	.	(8qqcc/	.	.	.	.	.	.	.
8BB-/	.	8BB-/	.	4b-\	.	4b-\	.	4b-\	.	4b-\)	.	.	.	.	.	.	.
8B-\J	.	8B-\J	.	.	.	.	.	.	.	.	.	.	.	.	.	.	.
=21	=21	=21	=21	=21	=21	=21	=21	=21	=21	=21	=21	=21	=21	=21	=21	=21	=21
4BB-/	.	4BB-/	.	(8.dd\L	.	(8.dd\L	.	8.ff\L	.	(8.ff\L	.	2d/	2b-\	2dd\	.	2ff\	.
.	.	.	.	16b-\Jk)	.	16b-\Jk)	.	16dd\Jk	.	16dd\Jk)	.	.	.	.	.	.	.
4B-\	.	4B-\	.	16dd\LL	.	(16dd\LL	.	(16ff\LL	.	(16ff\LL	.	.	.	.	.	.	.
.	.	.	.	(16b-\	.	16b-\	.	16dd\	.	16dd\	.	.	.	.	.	.	.
.	.	.	.	16dd\	.	16dd\	.	16ff\	.	16ff\	.	.	.	.	.	.	.
.	.	.	.	16b-\JJ)	.	16b-\JJ)	.	16dd\JJ)	.	16dd\JJ)	.	.	.	.	.	.	.
=22	=22	=22	=22	=22	=22	=22	=22	=22	=22	=22	=22	=22	=22	=22	=22	=22	=22
4BB-/	.	4BB-/	.	(8.dd\L	.	(8.dd\L	.	8bb-\L	.	(8.bb-\L	.	2f/	2dd\	2dd\	.	2bb-\	.
.	.	.	.	.	.	.	.	8ddd\J	.	.	.	.	.	.	.	.	.
!	!	!	!	!	!	!	!	!	!	!LO:TX:a:i:t=Dolce	!	!	!	!	!	!	!
.	.	.	.	16ff\Jk)	.	16ff\Jk)	.	.	.	16ddd\Jk)	.	.	.	.	.	.	.
4r	.	4r	.	16dd\LL	.	(16dd\LL	.	(16bb-\LL	.	16bb-\LL	.	.	.	.	.	.	.
.	.	.	.	(16ff\	.	16ff\	.	16ddd\)	.	16ddd\	.	.	.	.	.	.	.
.	.	.	.	16dd\	.	16dd\	.	16bb-\	.	16bb-\	.	.	.	.	.	.	.
.	.	.	.	16ff\JJ)	.	16ff\JJ)	.	16ddd\JJ	.	16ddd\JJ	.	.	.	.	.	.	.
!	!	!	!	!LO:LB:g=original	!	!LO:LB:g=original	!	!LO:LB:g=original	!	!	!	!	!	!	!	!	!
=23	=23	=23	=23	=23	=23	=23	=23	=23	=23	=23	=23	=23	=23	=23	=23	=23	=23
8E-\	.	8E-\	.	8r	.	8r	.	8r	.	8r	.	8f/	8cc\	8cc\	.	8ee-\	.
8r	.	8r	.	8gg\	.	8gg\	.	8eee-\	.	8eee-\	.	8r	8r	8r	.	8r	.
8F\	.	8F\	.	8ee-\	.	8r	.	8r	.	8r	.	8f/	8a\	8a\	.	8cc\	.
8r	.	8r	.	8r	.	8ee-\	.	8ccc\	.	8ccc\	.	8r	8r	8r	.	8r	.
!	!	!	!	!	!	!	!	!	!	!LO:LB:g=original	!	!	!	!	!	!	!
=24	=24	=24	=24	=24	=24	=24	=24	=24	=24	=24	=24	=24	=24	=24	=24	=24	=24
.	.	.	.	.	.	.	.	(16qqgg/	.	.	.	.	.	.	.	.	.
4BB-/	.	4BB-/	.	(8ee-\L	.	8ee-\L	.	8ccc\L)	.	(8ccc\L	.	8r	8r	8b-\L	.	8ccc\L	.
.	.	.	.	8dd\J)	.	8dd\J	.	8bb-\J	.	8bb-\J)	.	8d/L	16b-\LL	8cc\J	.	8bb-\J	.
.	.	.	.	.	.	.	.	.	.	.	.	.	16b-\JJ	.	.	.	.
4B-\	.	4B-\	.	4dd\	.	4dd\	.	4bb-\	.	4bb-\	.	8d/	4b-\	4cc\	.	4bb-\	.
.	.	.	.	.	.	.	.	.	.	.	.	8d/J	.	.	.	.	.
=25:|!|:	=25:|!|:	=25:|!|:	=25:|!|:	=25:|!|:	=25:|!|:	=25:|!|:	=25:|!|:	=25:|!|:	=25:|!|:	=25:|!|:	=25:|!|:	=25:|!|:	=25:|!|:	=25:|!|:	=25:|!|:	=25:|!|:	=25:|!|:
*>D	*	*>D	*	*>D	*	*>D	*	*>D	*	*>D	*	*>D	*>D	*>D	*	*>D	*
!	!	!	!	!	!	!	!	!	!	!	!	!LO:TX:a:t=8.	!LO:TX:a:t=8.	!LO:TX:a:t=8.	!	!LO:TX:a:t=8	!
!	!	!	!	!	!LO:DY:t=p.	!	!LO:DY:a:t=p.	!	!	!	!	!LO:N:vis=00	!LO:N:vis=00	!LO:N:vis=00	!	!LO:N:vis=00	!
4BB-/	.	4BB-/	.	8d/L	p	8d/L	p	(16ff\LL	.	(16ff\LL	.	0r	0r	0r	.	0r	.
.	.	.	.	.	.	.	.	16dd\	.	16dd\	.	.	.	.	.	.	.
.	.	.	.	8f/	.	8f/	.	16cc\)	.	16cc\	.	.	.	.	.	.	.
.	.	.	.	.	.	.	.	16b-\JJ	.	16b-\JJ)	.	.	.	.	.	.	.
4BB-/	.	4BB-/	.	8d/	.	8d/	.	16ff\LL	.	(16ff\LL	.	.	.	.	.	.	.
.	.	.	.	.	.	.	.	(16dd\	.	16dd\	.	.	.	.	.	.	.
.	.	.	.	8f/J	.	8f/J	.	16cc\	.	16cc\	.	.	.	.	.	.	.
.	.	.	.	.	.	.	.	16b-\JJ)	.	16b-\JJ)	.	.	.	.	.	.	.
!	!	!LO:LB:g=original	!	!	!	!	!	!	!	!	!	!	!	!	!	!	!
=26	=26	=26	=26	=26	=26	=26	=26	=26	=26	=26	=26	=26	=26	=26	=26	=26	=26
.	.	.	.	.	.	.	.	.	.	(16qqcc/LL	.	.	.	.	.	.	.
.	.	.	.	.	.	.	.	16qqcc/LL	.	16qqdd/	.	.	.	.	.	.	.
.	.	.	.	.	.	.	.	16qqdd/	.	16qqee-/	.	.	.	.	.	.	.
.	.	.	.	.	.	.	.	16qqee-/JJ	.	16qqdd/JJ	.	.	.	.	.	.	.
4AA/	.	4AA/	.	8e-/L	.	8e-/L	.	8dd\L	.	8dd\L)	.	.	.	.	.	.	.
.	.	.	.	8f/	.	8f/	.	8cc\J	.	8cc\J	.	.	.	.	.	.	.
4AA/	.	4AA/	.	8e-/	.	8e-/	.	4cc\	.	4cc\	.	.	.	.	.	.	.
.	.	.	.	8f/J	.	8f/J	.	.	.	.	.	.	.	.	.	.	.
!LO:LB:g=original	!	!	!	!	!	!	!	!	!	!	!	!	!	!	!	!	!
=27	=27	=27	=27	=27	=27	=27	=27	=27	=27	=27	=27	=27	=27	=27	=27	=27	=27
4AA/	.	4AA/	.	(8.ee-\L	.	(8.ee-\L	.	8.gg\L	.	(8.gg\L	.	.	.	.	.	.	.
.	.	.	.	16cc\Jk)	.	16cc\Jk)	.	16ee-\Jk	.	16ee-\Jk)	.	.	.	.	.	.	.
4AA/	.	4AA/	.	16ee-\LL	.	(16ee-\LL	.	(16gg\LL	.	(16gg\LL	.	.	.	.	.	.	.
.	.	.	.	(16cc\	.	16cc\	.	16ee-\	.	16ee-\	.	.	.	.	.	.	.
.	.	.	.	16ee-\	.	16ee-\	.	16gg\	.	16gg\	.	.	.	.	.	.	.
.	.	.	.	16cc\JJ)	.	16cc\JJ)	.	16ee-\JJ)	.	16ee-\JJ)	.	.	.	.	.	.	.
=28	=28	=28	=28	=28	=28	=28	=28	=28	=28	=28	=28	=28	=28	=28	=28	=28	=28
!	!	!	!	!	!	!	!LO:DY:t=p.	!	!	!	!	!	!	!	!	!	!
8BB-\L	.	8BB-\L	.	8cc\L	.	(8cc\L	p	8ee-\L	.	(8ee-\L	.	.	.	.	.	.	.
8D\	.	8D\	.	8b-\J	.	8b-\J)	.	8dd\J	.	8dd\J)	.	.	.	.	.	.	.
8F\	.	8F\	.	4b-\	.	4b-\	.	4dd\	.	4dd\	.	.	.	.	.	.	.
8B-\J	.	8B-\J	.	.	.	.	.	.	.	.	.	.	.	.	.	.	.
=29	=29	=29	=29	=29	=29	=29	=29	=29	=29	=29	=29	=29	=29	=29	=29	=29	=29
!	!	!	!	!	!LO:DY:t=f.	!	!	!	!	!	!	!LO:N:vis=00	!LO:N:vis=00	!LO:N:vis=00	!	!LO:N:vis=00	!
4F\	.	4F\	.	8.a\L	f	8.a\L	.	(16a\LL	.	(16a\LL	.	0r	0r	0r	.	0r	.
.	.	.	.	.	.	.	.	16cc\	.	16cc\	.	.	.	.	.	.	.
.	.	.	.	.	.	.	.	16ff\	.	16ff\	.	.	.	.	.	.	.
.	.	.	.	16cc\Jk	.	16cc\Jk	.	16aa\JJ)	.	16aa\JJ)	.	.	.	.	.	.	.
4F\	.	4F\	.	16b-/LL	.	(16b-/LL	.	16gg\LL	.	(16gg\LL	.	.	.	.	.	.	.
.	.	.	.	(16a/	.	16a/	.	(16ff\	.	16ff\	.	.	.	.	.	.	.
.	.	.	.	16g/	.	16g/	.	16een\	.	16een\	.	.	.	.	.	.	.
.	.	.	.	16a/JJ)	.	16a/JJ)	.	16ff\JJ)	.	16ff\JJ)	.	.	.	.	.	.	.
!	!	!	!	!	!	!	!	!LO:LB:g=original	!	!	!	!	!	!	!	!	!
=30	=30	=30	=30	=30	=30	=30	=30	=30	=30	=30	=30	=30	=30	=30	=30	=30	=30
4En\	.	4En\	.	8.een\L	.	8.een\L	.	(16b-\LL	.	(16b-\LL	.	.	.	.	.	.	.
.	.	.	.	.	.	.	.	16ee-\	.	16dd\	.	.	.	.	.	.	.
.	.	.	.	.	.	.	.	16gg\	.	16ff\	.	.	.	.	.	.	.
.	.	.	.	16gg\Jk	.	16gg\Jk	.	16bb-\JJ)	.	16bb-\JJ)	.	.	.	.	.	.	.
4E\	.	4E\	.	16ff\LL	.	16ff\LL	.	16aa\LL	.	(16aa\LL	.	.	.	.	.	.	.
.	.	.	.	(16ee\	.	(16ee\	.	(16gg\	.	16gg\	.	.	.	.	.	.	.
.	.	.	.	16dd\	.	16dd\	.	16ff#X\	.	16ff#X\	.	.	.	.	.	.	.
.	.	.	.	16ee\JJ)	.	16ee\JJ)	.	16gg\JJ)	.	16gg\JJ)	.	.	.	.	.	.	.
!	!	!	!	!	!	!	!	!	!	!LO:LB:g=original	!	!	!	!	!	!	!
=31	=31	=31	=31	=31	=31	=31	=31	=31	=31	=31	=31	=31	=31	=31	=31	=31	=31
8F\L	.	8F\L	.	(8ff\L	.	8ff\L|	.	(16aa\LL	.	16aa\LL	.	.	.	.	.	.	.
.	.	.	.	.	.	.	.	16ffn\	.	(16ffn\	.	.	.	.	.	.	.
8G\	.	8G\	.	16gg\L	.	16gg\L	.	16bb-\)	.	16bb-\	.	.	.	.	.	.	.
.	.	.	.	16ff\JJ)	.	16ee-\JJ	.	16gg\JJ	.	16gg\JJ)	.	.	.	.	.	.	.
!	!	!	!	!	!	!LO:LB:g=original	!	!	!	!	!	!	!	!	!	!	!
8A\	.	8A\	.	(16aa\LL	.	(16aa\LL	.	(16ccc\LL	.	(16ccc\LL	.	.	.	.	.	.	.
.	.	.	.	16ff\	.	16ff\	.	16aa\	.	16aa\	.	.	.	.	.	.	.
8B-\J	.	8B-\J	.	16bb-\	.	16bb-\	.	16ddd\)	.	16ddd\)	.	.	.	.	.	.	.
.	.	.	.	16gg\JJ)	.	16gg\JJ)	.	16bb-\JJ	.	16bb-\JJ	.	.	.	.	.	.	.
!	!	!	!	!LO:LB:g=original	!	!	!	!	!	!	!	!	!	!	!	!	!
=32	=32	=32	=32	=32	=32	=32	=32	=32	=32	=32	=32	=32	=32	=32	=32	=32	=32
!LO:TX:a:t=P:problem=mixed beam	!	!LO:TX:a:t=P:problem=mixed beam	!	!	!	!	!	!	!	!	!	!	!	!	!	!	!
8c\L	.	8c\L	.	16cc\LL	.	(16cc/LL	.	16aa\LL	.	(16aa\LL	.	.	.	.	.	.	.
.	.	.	.	(16b-\	.	16b-/	.	(16gg\	.	16gg\	.	.	.	.	.	.	.
8C/J	.	8C/J	.	16a\	.	16a/	.	16ff\	.	16ff\	.	.	.	.	.	.	.
.	.	.	.	16g\JJ)	.	16g/JJ)	.	16een\JJ)	.	16een\JJ)	.	.	.	.	.	.	.
.	.	.	.	(8qqg/	.	(8qqg/	.	(8qqee/	.	.	.	.	.	.	.	.	.
16F\LL	.	(16F\LL	.	4a/)	.	4ee- 4a/)	.	4ff\)	.	4ff\	.	.	.	.	.	.	.
16E-X\	.	16E-X\	.	.	.	.	.	.	.	.	.	.	.	.	.	.	.
16D\	.	16D\	.	.	.	.	.	.	.	.	.	.	.	.	.	.	.
!LO:TX:a:i:t=Da Capo.	!	!LO:TX:a:i:t=Da Capo Tchema	!	!LO:TX:a:i:t=Da Capo Tchema	!	!LO:TX:a:i:t=Da Capo	!	!LO:TX:a:i:t=Da Capo Tchema	!	!LO:TX:a:i:t=Da Capo	!	!	!LO:TX:a:i:t=Da Capo \nTchema	!LO:TX:a:i:t=Da Capo\n Tche\nma	!	!LO:TX:a:i:t=Da Ca\npo Tche\nma	!
16C\JJ	.	16C\JJ)	.	.	.	.	.	.	.	.	.	.	.	.	.	.	.
!LO:LB:g=original	!	!LO:LB:g=original	!	!LO:LB:g=original	!	!LO:LB:g=original	!	!LO:LB:g=original	!	!LO:LB:g=original	!	!LO:LB:g=original	!LO:LB:g=original	!LO:LB:g=original	!	!LO:LB:g=original	!
=33:|!	=33:|!	=33:|!	=33:|!	=33:|!	=33:|!	=33:|!	=33:|!	=33:|!	=33:|!	=33:|!	=33:|!	=33:|!	=33:|!	=33:|!	=33:|!	=33:|!	=33:|!
*>E	*	*>E	*	*>E	*	*>E	*	*>E	*	*>E	*	*>E	*>E	*>E	*	*>E	*
*	*	*	*	*	*	*	*	*	*	*Xtuplet	*	*	*	*	*	*Xtuplet	*
!	!	!	!	!	!	!	!	!	!	!	!	!	!	!	!	!LO:TX:a:i:t=Solo	!
!LO:TX:a:i:t=2.do	!LO:DY:t=p.	!LO:TX:a:i:t=2do	!LO:DY:t=p.	!LO:TX:a:i:t=2do	!	!LO:TX:a:i:t=2do.	!LO:DY:t=p&colon;	!LO:TX:a:i:t=2do	!	!LO:TX:a:i:t=2do	!	!LO:TX:a:i:t=2do	!LO:TX:a:i:t=2do	!LO:TX:a:i:t=2do	!	!LO:TX:a:i:t=2do	!
4B-\	p	4B-\	p	8B-/	.	4d/	p	8d/	.	(12B-/L	p	8d/	8b-\	4c/	.	(12B-/L	.
.	.	.	.	.	.	.	.	.	.	12f/)	.	.	.	.	.	12f/)	.
.	.	.	.	8r	.	.	.	8r	.	.	.	8r	8r	.	.	.	.
.	.	.	.	.	.	.	.	.	.	12f/J|	.	.	.	.	.	12f/J|	.
4B-\	.	4B-\	.	4r	.	4r	.	4r	.	(12f/L	.	4r	4r	4r	.	(12f/L	.
.	.	.	.	.	.	.	.	.	.	12d/)	.	.	.	.	.	12d/)	.
.	.	.	.	.	.	.	.	.	.	12d/J|	.	.	.	.	.	12d/J|	.
=34	=34	=34	=34	=34	=34	=34	=34	=34	=34	=34	=34	=34	=34	=34	=34	=34	=34
4A\	.	4A\	.	8c/	.	4e- 4c/	.	8e-/	.	(12c/L	.	8f/	8cc\	4e-/	.	(12d/L	.
.	.	.	.	.	.	.	.	.	.	12f/)	.	.	.	.	.	12f/)	.
.	.	.	.	8r	.	.	.	8r	.	.	.	8r	8r	.	.	.	.
.	.	.	.	.	.	.	.	.	.	12f/J|	.	.	.	.	.	12f/J|	.
4A\	.	4A\	.	4r	.	4e- 4c/	.	4r	.	(12f/L	.	4r	4r	4r	.	(12f/L	.
.	.	.	.	.	.	.	.	.	.	12e-/)	.	.	.	.	.	12e-/)	.
.	.	.	.	.	.	.	.	.	.	12e-/J|	.	.	.	.	.	12e-/J|	.
=35	=35	=35	=35	=35	=35	=35	=35	=35	=35	=35	=35	=35	=35	=35	=35	=35	=35
!	!	!	!	!	!	!	!	!	!	!	!	!LO:TX:a:t=2.	!LO:TX:a:t=2.	!	!	!	!
!	!	!	!	!	!	!	!	!	!	!	!	!LO:N:vis=0	!LO:N:vis=0	!	!	!	!
4B-\	.	4B-\	.	8d/	.	(8d/L	.	8d/	.	(12d/L	.	1r	1r	8d/L	.	12d/L	.
.	.	.	.	.	.	.	.	.	.	12f/)	.	.	.	.	.	12f/	.
.	.	.	.	8r	.	8f/J)	.	8r	.	.	.	.	.	8f/J	.	.	.
.	.	.	.	.	.	.	.	.	.	12b-/J|	.	.	.	.	.	12b-/J	.
!	!	!	!	!	!	!	!	!	!	!	!	!	!	!LO:TUP:a:problem=klamra lukowa	!	!	!
*	*	*	*	*	*	*Xtuplet	*	*	*	*	*	*	*	*	*	*	*
4BB-/	.	4BB-/	.	8dd\	.	(12b-\L	.	8dd\	.	12dd\L	.	.	.	12b-\L	.	12dd\L	.
.	.	.	.	.	.	12dd\	.	.	.	12ff\	.	.	.	12dd\	.	12ff\	.
.	.	.	.	8r	.	.	.	8r	.	.	.	.	.	.	.	.	.
.	.	.	.	.	.	12b-\J)	.	.	.	12dd\J	.	.	.	12b-\J	.	12dd\J	.
=36	=36	=36	=36	=36	=36	=36	=36	=36	=36	=36	=36	=36	=36	=36	=36	=36	=36
.	.	.	.	(8qqb-/	.	(8qqb-/	.	(8qqdd/	.	(8qqdd/	.	.	.	(4qqb-/	.	(8qqdd/	.
*	*	*	*	*2\right	*	*	*	*2\right	*	*2\right	*	*	*	*	*	*	*
8F\L	.	8F\L	.	2a\)	.	2a/)	.	2cc\)	.	2cc\)	.	.	.	2a\)	.	2cc\)	.
8E-\	.	8E-\	.	.	.	.	.	.	.	.	.	.	.	.	.	.	.
8D\	.	8D\	.	.	.	.	.	.	.	.	.	.	.	.	.	.	.
8C\J	.	8C\J	.	.	.	.	.	.	.	.	.	.	.	.	.	.	.
=37	=37	=37	=37	=37	=37	=37	=37	=37	=37	=37	=37	=37	=37	=37	=37	=37	=37
*	*	*	*	*	*	*	*	*Xtuplet	*	*	*	*	*	*	*	*	*
!	!	!	!	!	!	!	!	!	!LO:DY:t=f.	!	!	!	!	!	!LO:HP:a:t=Cres.	!	!
4BB-/	.	4BB-/	.	8dd\	.	8b-\	.	12b-\L	f	(12b-\L	.	8d/	8b-\	2dd\	<	2bb-\	<
.	.	.	.	.	.	.	.	12dd\	.	12dd\)	.	.	.	.	.	.	.
.	.	.	.	8r	.	8r	.	.	.	.	.	8r	8r	.	.	.	.
.	.	.	.	.	.	.	.	12ff\J	.	12ff\J|	.	.	.	.	.	.	.
!	!	!	!	!	!	!LO:N:vis=8	!	!	!	!	!	!	!	!	!	!	!
4BB-/	.	4BB-/	.	(8.dd\L	.	(8.dd\L	.	8.bb-\L	.	(8.bb-\L	.	4r	4r	.	.	.	.
.	.	.	.	16b-\Jk)	.	16b-\Jk)	.	16dd\Jk	.	16dd\Jk)	.	.	.	.	.	.	.
=38	=38	=38	=38	=38	=38	=38	=38	=38	=38	=38	=38	=38	=38	=38	=38	=38	=38
4AA/	.	4AA/	.	8cc\	.	8cc\	.	12cc\L	.	(12cc\L	.	8e-/	8cc\	2cc\	.	2ccc\	.
.	.	.	.	.	.	.	.	12ee-\	.	12ee-\)	.	.	.	.	.	.	.
.	.	.	.	8r	.	8r	.	.	.	.	.	8r	8r	.	.	.	.
.	.	.	.	.	.	.	.	12aa\J	.	12aa\J|	.	.	.	.	.	.	.
4AA/	.	4AA/	.	(8.ee-\L	.	(8.ee-\L	.	8.ccc\L	.	(8.ccc\L	.	4r	4r	.	.	.	.
.	.	.	.	16cc\Jk)	.	16cc\Jk)	.	16ee-\Jk	.	16ee-\Jk)	.	.	.	.	.	.	.
=39	=39	=39	=39	=39	=39	=39	=39	=39	=39	=39	=39	=39	=39	=39	=39	=39	=39
4BB-/	.	4BB-/	.	8b-\L	.	(8b-\L	.	(12dd\L	.	(12dd\L	.	8d/	8b-\	8b-\L	.	12dd\L	.
.	.	.	.	.	.	.	.	12b-\	.	12bb-\)	.	.	.	.	.	12bb-\	.
.	.	.	.	8ee-\J	.	8dd\J)	.	.	.	.	.	8r	8r	8dd\J	.	.	.
.	.	.	.	.	.	.	.	12f\J)	.	12ff\J|	.	.	.	.	.	12ff\J	.
!	!	!	!	!	!	!	!	!	!	!	!	!	!	!	!	!LO:LB:g=original	!
*	*	*	*	*	*	*	*	*	*	*	*	*	*	*Xtuplet	*	*	*
8E-\L	.	(8E-\L	.	8g/L	.	(12g/L	.	12f/L	.	(12ee-\L	.	4r	4r	12g/L	.	12ee-\L	.
.	.	.	.	.	.	12e-/)	.	12f/	.	12cc\)	.	.	.	12e-/	.	12cc\	.
8F\J	.	8F\J)	.	8c/J	.	.	.	.	.	.	.	.	.	.	.	.	.
.	.	.	.	.	.	12c/J|	.	12f/J	.	12a\J|	.	.	.	12c/J	.	12a\J	.
.	.	.	.	.	.	.	.	.	.	.	.	.	.	(4qqc/	.	.	.
!	!	!	!	!	!	!	!	!LO:LB:g=original	!	!LO:LB:g=original	!	!	!	!	!	!	!
=40	=40	=40	=40	=40	=40	=40	=40	=40	=40	=40	=40	=40	=40	=40	=40	=40	=40
.	.	.	.	(8qqd/	.	4qqc/	.	.	.	(8qqa/	.	.	.	.	.	(8qqa/	.
4BB-/	.	4BB-/	.	2d/)	.	2d/	.	2b-\	.	2b-\)	.	2d/	2b-\	2d/)	.	2b-\)	.
4B-\	.	4B-\	.	.	.	.	.	.	.	.	.	.	.	.	.	.	.
!	!	!	!	!LO:LB:g=original	!	!	!	!	!	!	!	!	!	!	!	!	!
=41:|!|:	=41:|!|:	=41:|!|:	=41:|!|:	=41:|!|:	=41:|!|:	=41:|!|:	=41:|!|:	=41:|!|:	=41:|!|:	=41:|!|:	=41:|!|:	=41:|!|:	=41:|!|:	=41:|!|:	=41:|!|:	=41:|!|:	=41:|!|:
*>F	*	*>F	*	*>F	*	*>F	*	*>F	*	*>F	*	*>F	*>F	*>F	*	*>F	*
!	!	!	!	!	!	!	!	!	!	!LO:TX:a:t=P:problem=mixed beam	!	!LO:TX:a:t=4.	!LO:TX:a:t=4.	!LO:TX:a:i:t=Solo	!	!	!
!	!LO:DY:t=f.	!	!LO:DY:t=f.	!	!	!	!	!	!	!	!	!LO:N:vis=00	!LO:N:vis=00	!	!	!	!
4F\	f	4F\	f	8f/	.	(12f/L	.	8dd\	.	(>12f/L	.	0r	0r	(12f\L	.	(12f\L	.
.	.	.	.	.	.	12a/)	.	.	.	12ff\)	.	.	.	12ff'\)	.	12a\)	.
.	.	.	.	8r	.	.	.	8r	.	.	.	.	.	.	.	.	.
.	.	.	.	.	.	12a/J|	.	.	.	12ff\J|	.	.	.	12ff'\J	.	12a\J|	.
4G\	.	4G\	.	4r	.	(12a/L	.	4r	.	(12ff\L	.	.	.	(12ff\L	.	(12a\L	.
.	.	.	.	.	.	12b-/)	.	.	.	12een\)	.	.	.	12eeX\)	.	12b-\)	.
.	.	.	.	.	.	12b-/J|	.	.	.	12ee\J|	.	.	.	12ee\J	.	12b-\J|	.
!	!	!LO:LB:g=original	!	!	!	!LO:LB:g=original	!	!	!	!	!	!	!	!LO:LB:g=original	!	!	!
=42	=42	=42	=42	=42	=42	=42	=42	=42	=42	=42	=42	=42	=42	=42	=42	=42	=42
!	!	!	!	!	!	!	!	!	!	!LO:TX:a:t=P:problem=mixed beam	!	!	!	!	!	!	!
4A\	.	4A\	.	8f/	.	(12a\L	.	8cc\	.	(>12f/L	.	.	.	(12f\L	.	(12a\L	.
.	.	.	.	.	.	12cc\)	.	.	.	12een\)	.	.	.	12een\)	.	12cc\)	.
.	.	.	.	8r	.	.	.	8r	.	.	.	.	.	.	.	.	.
.	.	.	.	.	.	12cc\J|	.	.	.	12ee\J|	.	.	.	12ee\J|	.	12cc\J|	.
4B-\	.	4B-\	.	4r	.	(12cc\L	.	4r	.	(12ee\L	.	.	.	(12ee\L	.	(12cc\L	.
.	.	.	.	.	.	12b-\)	.	.	.	12dd\)	.	.	.	12dd\)	.	12b-\)	.
.	.	.	.	.	.	12b-\J|	.	.	.	12dd\J|	.	.	.	12dd\J|	.	12b-\J|	.
!LO:LB:g=original	!	!	!	!	!	!	!	!	!	!	!	!	!	!	!	!	!
=43	=43	=43	=43	=43	=43	=43	=43	=43	=43	=43	=43	=43	=43	=43	=43	=43	=43
!	!	!	!	!LO:TX:a:t=1	!	!	!	!LO:TX:a:t=1	!	!	!	!	!	!	!	!	!
4F\	.	4F\	.	2r	.	(12b-/L	.	2r	.	(12dd\L	.	.	.	(12dd\L	.	(12b-\L	.
.	.	.	.	.	.	12a/)	.	.	.	12cc\)	.	.	.	12cc\)	.	12a\)	.
.	.	.	.	.	.	12a/J|	.	.	.	12cc\J|	.	.	.	12cc\J|	.	12a\J|	.
4En\	.	4En\	.	.	.	(12g/L	.	.	.	(12b-\L	.	.	.	(12b-\L	.	(12g/L	.
.	.	.	.	.	.	12f/)	.	.	.	12a\)	.	.	.	12a\)	.	12f/)	.
.	.	.	.	.	.	12en/J|	.	.	.	12g\J|	.	.	.	12g\J|	.	12eX/J	.
=44	=44	=44	=44	=44	=44	=44	=44	=44	=44	=44	=44	=44	=44	=44	=44	=44	=44
.	.	.	.	(8qqe-/	.	(4qqd/	.	(8qqg/	.	(8qqa/	.	.	.	(8qqg/	.	(8qqf/	.
*Xtuplet	*	*Xtuplet	*	*	*	*	*	*	*	*	*	*	*	*	*	*	*
(12F\L	.	(12F\L	.	2f/)	.	2e-/)	.	2a/)	.	2f/)	.	.	.	2f/)	.	2g/)	.
12c\)	.	12c\)	.	.	.	.	.	.	.	.	.	.	.	.	.	.	.
12B-\J|	.	12B-\J|	.	.	.	.	.	.	.	.	.	.	.	.	.	.	.
(12A\L	.	(12A\L	.	.	.	.	.	.	.	.	.	.	.	.	.	.	.
12G\)	.	12G\)	.	.	.	.	.	.	.	.	.	.	.	.	.	.	.
12F\J|	.	12F\J|	.	.	.	.	.	.	.	.	.	.	.	.	.	.	.
=45	=45	=45	=45	=45	=45	=45	=45	=45	=45	=45	=45	=45	=45	=45	=45	=45	=45
!	!	!	!	!	!	!	!	!	!	!	!	!	!	!LO:TX:a:t=4	!	!LO:TX:a:t=4	!
!	!	!	!	!	!	!	!	!	!	!	!	!	!	!LO:N:vis=00	!	!LO:N:vis=00	!
4C/	.	4C/	.	4en 4G/	.	4en 4G/	.	16G/LL	.	16G/LL	.	2B-/	2b-\	0r	.	0r	.
.	.	.	.	.	.	.	.	(16Bn/	.	(16Bn/	.	.	.	.	.	.	.
.	.	.	.	.	.	.	.	16c/	.	16c/	.	.	.	.	.	.	.
.	.	.	.	.	.	.	.	16en/JJ)	.	16en/JJ)	.	.	.	.	.	.	.
4C/	.	4C/	.	4e 4G/	.	4e 4G/	.	(16g\LL	.	16g\LL	.	.	.	.	.	.	.
.	.	.	.	.	.	.	.	16cc\	.	16cc\	.	.	.	.	.	.	.
.	.	.	.	.	.	.	.	16een\	.	16een\	.	.	.	.	.	.	.
.	.	.	.	.	.	.	.	16gg\JJ)	.	16bb-\JJ	.	.	.	.	.	.	.
=46	=46	=46	=46	=46	=46	=46	=46	=46	=46	=46	=46	=46	=46	=46	=46	=46	=46
!	!	!	!	!	!	!	!	!	!	!	!	!LO:TX:a:t=1	!LO:TX:a:t=1	!	!	!	!
4C/	.	4C/	.	4e- 4G/	.	4e- 4G/	.	16bb-\LL	.	16bb-\LL	.	2r	2r	.	.	.	.
.	.	.	.	.	.	.	.	(16gg\	.	(16gg\	.	.	.	.	.	.	.
.	.	.	.	.	.	.	.	16ee-\	.	16ee-\	.	.	.	.	.	.	.
.	.	.	.	.	.	.	.	16cc\JJ)	.	16cc\JJ)	.	.	.	.	.	.	.
4r	.	4r	.	4r	.	4r	.	16b-/LL	.	(16b-/LL	.	.	.	.	.	.	.
.	.	.	.	.	.	.	.	(16g/	.	16g/	.	.	.	.	.	.	.
.	.	.	.	.	.	.	.	16en/	.	16en/)	.	.	.	.	.	.	.
.	.	.	.	.	.	.	.	16c/JJ)	.	16c/JJ	.	.	.	.	.	.	.
!	!	!	!	!	!	!	!	!LO:LB:g=original	!	!	!	!	!	!	!	!	!
=47	=47	=47	=47	=47	=47	=47	=47	=47	=47	=47	=47	=47	=47	=47	=47	=47	=47
*	*	*	*	*	*	*	*	*	*	*	*	*Xtuplet	*Xtuplet	*	*	*	*
4F\	.	4F\	.	8G/	.	(12A/L	.	8f/	.	(12f/L	.	12A/L	12f\L	.	.	.	.
.	.	.	.	.	.	12f/)	.	.	.	12a/)	.	12c/	12b-\	.	.	.	.
.	.	.	.	8r	.	.	.	8r	.	.	.	.	.	.	.	.	.
.	.	.	.	.	.	12f/J|	.	.	.	12a/J|	.	12c/J	12b-\J	.	.	.	.
!	!	!	!	!	!	!	!	!	!	!LO:LB:g=original	!	!	!	!	!	!	!
8BB-/L	.	8BB-/L	.	8g/	.	(12d/L	.	8b-\	.	(12b-/L	.	12d/L	(12b-\L	.	.	.	.
.	.	.	.	.	.	12B-/)	.	.	.	12g/)	.	12B-/	12g\)	.	.	.	.
8C/J	.	8C/J	.	8r	.	.	.	8r	.	.	.	.	.	.	.	.	.
.	.	.	.	.	.	12B-/J|	.	.	.	12g/J|	.	12B-/J	12g\J	.	.	.	.
=48	=48	=48	=48	=48	=48	=48	=48	=48	=48	=48	=48	=48	=48	=48	=48	=48	=48
.	.	.	.	(4qqB-/	.	(8qqB-/	.	(8qqg/	.	(8qqg/	.	8qqA/	(8qqg/	.	.	.	.
8F\L	.	8F\L	.	2A/)	.	2A/)	.	2f/)	.	2f/)	.	2A/	2f/)	.	.	.	.
8E-X\	.	8E-X\	.	.	.	.	.	.	.	.	.	.	.	.	.	.	.
8D\	.	8D\	.	.	.	.	.	.	.	.	.	.	.	.	.	.	.
!LO:TX:a:i:t=Da Capo	!	!LO:TX:a:i:t=Da Capo Tchema	!	!LO:TX:a:i:t=Da Capo \nTchema	!	!LO:TX:a:i:t=Da Capo.	!	!LO:TX:a:i:t=Da Capo Tchema	!	!LO:TX:a:i:t=Da Capo.	!	!LO:TX:a:i:t=Da Capo Tchema	!LO:TX:a:i:t=Da Capo\n Tche(ma)	!LO:TX:a:i:t=Da Capo Tchema	!	!LO:TX:a:i:t=Da Capo Tche\nma	!
8C\J	.	8C\J	.	.	.	.	.	.	.	.	.	.	.	.	.	.	.
!	!	!	!	!LO:LB:g=original	!	!LO:LB:g=original	!	!LO:LB:g=original	!	!LO:LB:g=original	!	!LO:LB:g=original	!LO:LB:g=original	!LO:LB:g=original	!	!	!
=49:|!	=49:|!	=49:|!	=49:|!	=49:|!	=49:|!	=49:|!	=49:|!	=49:|!	=49:|!	=49:|!	=49:|!	=49:|!	=49:|!	=49:|!	=49:|!	=49:|!	=49:|!
*>G	*	*>G	*	*>G	*	*>G	*	*>G	*	*>G	*	*>G	*>G	*>G	*	*>G	*
!LO:TX:a:i:t=3tio	!LO:DY:t=p.	!LO:TX:a:i:t=3.	!LO:DY:t=p&colon;	!LO:TX:a:i:t=3.	!	!LO:TX:a:i:t=3to	!	!LO:TX:a:i:t=3.	!LO:DY:t=p.	!LO:TX:a:i:t=3tio	!LO:DY:t=p.	!LO:TX:a:i:t=3.	!LO:TX:a:i:t=3.	!LO:TX:a:i:t=3.	!	!LO:TX:a:i:t=3.	!
4BB-/	p	4BB-/	p	16B-/LL	.	16B-/LL	.	4b- 4d/	p	4b- 4d/	p	2d/	2b-\	2dd\	.	2bb-\	.
.	.	.	.	16d/	.	16d/	.	.	.	.	.	.	.	.	.	.	.
.	.	.	.	16f/	.	16f/	.	.	.	.	.	.	.	.	.	.	.
.	.	.	.	16b-/JJ	.	16b-/JJ	.	.	.	.	.	.	.	.	.	.	.
4BB-/	.	4BB-/	.	16dd\LL	.	16dd\LL	.	4b- 4d/	.	4b- 4d/	.	.	.	.	.	.	.
.	.	.	.	16ff\	.	16ff\	.	.	.	.	.	.	.	.	.	.	.
.	.	.	.	16bb-\	.	16bb-\	.	.	.	.	.	.	.	.	.	.	.
.	.	.	.	16ff\JJ	.	16ff\JJ	.	.	.	.	.	.	.	.	.	.	.
=50	=50	=50	=50	=50	=50	=50	=50	=50	=50	=50	=50	=50	=50	=50	=50	=50	=50
4BB-/	.	4BB-/	.	16dd\LL	.	16dd\LL	.	4b- 4d/	.	4b- 4d/	.	8f/	8dd\	8dd\	.	8ff\	.
.	.	.	.	16ff\	.	16ff\	.	.	.	.	.	.	.	.	.	.	.
.	.	.	.	16bb-\	.	16bb-\	.	.	.	.	.	8r	8r	8r	.	8r	.
.	.	.	.	16ff\JJ	.	16ff\JJ	.	.	.	.	.	.	.	.	.	.	.
4r	.	4r	.	16ee-\LL	.	16ee-\LL	.	4r	.	4r	.	4r	4r	4r	.	4r	.
.	.	.	.	16dd\	.	16dd\	.	.	.	.	.	.	.	.	.	.	.
.	.	.	.	16cc\	.	16cc\	.	.	.	.	.	.	.	.	.	.	.
.	.	.	.	16b-\JJ	.	16b-\JJ	.	.	.	.	.	.	.	.	.	.	.
=51	=51	=51	=51	=51	=51	=51	=51	=51	=51	=51	=51	=51	=51	=51	=51	=51	=51
!	!	!	!	!	!	!	!	!	!	!	!	!LO:TX:a:t=2	!LO:TX:a:t=2.	!LO:TX:a:t=2.	!	!LO:TX:a:t=2.	!
!	!	!	!	!	!	!	!	!	!	!	!	!LO:N:vis=0	!LO:N:vis=0	!LO:N:vis=0	!	!LO:N:vis=0	!
4F\	.	4F\	.	16A/LL	.	16A/LL	.	4f 4A/	.	4f 4A/	.	1r	1r	1r	.	1r	.
.	.	.	.	16c/	.	16c/	.	.	.	.	.	.	.	.	.	.	.
.	.	.	.	16f/	.	16f/	.	.	.	.	.	.	.	.	.	.	.
.	.	.	.	16a/JJ	.	16a/JJ	.	.	.	.	.	.	.	.	.	.	.
4F\	.	4F\	.	16cc\LL	.	16cc\LL	.	4f 4A/	.	4f 4A/	.	.	.	.	.	.	.
.	.	.	.	16a\	.	16a\	.	.	.	.	.	.	.	.	.	.	.
.	.	.	.	16ee-\	.	16ee-\	.	.	.	.	.	.	.	.	.	.	.
.	.	.	.	16cc\JJ	.	16cc\JJ	.	.	.	.	.	.	.	.	.	.	.
=52	=52	=52	=52	=52	=52	=52	=52	=52	=52	=52	=52	=52	=52	=52	=52	=52	=52
4F\	.	4F\	.	16b-\LL	.	16a\LL	.	4f 4A/	.	4f 4A/	.	.	.	.	.	.	.
.	.	.	.	16cc\	.	16cc\	.	.	.	.	.	.	.	.	.	.	.
.	.	.	.	16ee-\	.	16ee-\	.	.	.	.	.	.	.	.	.	.	.
.	.	.	.	16cc\JJ	.	16cc\JJ	.	.	.	.	.	.	.	.	.	.	.
4r	.	4r	.	16b-/LL	.	16b-/LL	.	4r	.	4r	.	.	.	.	.	.	.
.	.	.	.	16a/	.	16a/	.	.	.	.	.	.	.	.	.	.	.
.	.	.	.	16g/	.	16g/	.	.	.	.	.	.	.	.	.	.	.
.	.	.	.	16f/JJ	.	16f/JJ	.	.	.	.	.	.	.	.	.	.	.
=53	=53	=53	=53	=53	=53	=53	=53	=53	=53	=53	=53	=53	=53	=53	=53	=53	=53
8BB-\L	.	8BB-/L	.	16d/LL	.	16d/LL	.	2bb-\	.	[2bb-\	.	2B-/	2b-\	2dd\	.	2bb-\	.
.	.	.	.	16b-/	.	16b-/	.	.	.	.	.	.	.	.	.	.	.
8C\	.	8C/	.	16e-/	.	16e-/	.	.	.	.	.	.	.	.	.	.	.
.	.	.	.	16b-/JJ	.	16b-/JJ	.	.	.	.	.	.	.	.	.	.	.
8D\	.	8D/	.	16f/LL	.	16f/LL	.	.	.	.	.	.	.	.	.	.	.
.	.	.	.	16b-/	.	16b-/	.	.	.	.	.	.	.	.	.	.	.
8E-\J	.	8E-/J	.	16g/	.	16g/	.	.	.	.	.	.	.	.	.	.	.
.	.	.	.	16b-/JJ	.	16b-/JJ	.	.	.	.	.	.	.	.	.	.	.
=54	=54	=54	=54	=54	=54	=54	=54	=54	=54	=54	=54	=54	=54	=54	=54	=54	=54
8D\L	.	8D\L	.	16f/LL	.	16f/LL	.	2bb-\	.	2bb-\]	.	2B-/	2b-\	2dd\	.	2bb-\	.
.	.	.	.	16b-/	.	16b-/	.	.	.	.	.	.	.	.	.	.	.
8E-\	.	8E-\	.	16g/	.	16g/	.	.	.	.	.	.	.	.	.	.	.
.	.	.	.	16b-/JJ	.	16b-/JJ	.	.	.	.	.	.	.	.	.	.	.
8D\	.	8D\	.	16f/LL	.	16f/LL	.	.	.	.	.	.	.	.	.	.	.
.	.	.	.	16b-/	.	16b-/	.	.	.	.	.	.	.	.	.	.	.
8C\J	.	8C\J	.	16e-/	.	16e-/	.	.	.	.	.	.	.	.	.	.	.
.	.	.	.	16b-/JJ	.	16b-/JJ	.	.	.	.	.	.	.	.	.	.	.
!	!	!	!	!LO:LB:g=original	!	!	!	!	!	!	!	!	!	!	!	!	!
=55	=55	=55	=55	=55	=55	=55	=55	=55	=55	=55	=55	=55	=55	=55	=55	=55	=55
!	!	!	!	!	!	!	!	!LO:TX:a:t=P:problem=mixed beam	!	!LO:TX:a:t=P:problem=mixed beam	!	!LO:TX:a:t=2	!LO:TX:a:t=2	!LO:TX:a:t=2.	!	!LO:TX:a:t=2.	!
!	!	!	!	!	!	!	!	!	!	!	!	!LO:N:vis=0	!LO:N:vis=0	!LO:N:vis=0	!	!LO:N:vis=0	!
4BB-/	.	4BB-/	.	16d/LL	.	16d/LL	.	16bb-\LL	.	16bb-\LL	.	1r	1r	1r	.	1r	.
.	.	.	.	16B-/	.	16B-/	.	16d/	.	16d/	.	.	.	.	.	.	.
.	.	.	.	16c/	.	16c/	.	16e-/	.	16e-/	.	.	.	.	.	.	.
.	.	.	.	16d/JJ	.	16d/JJ	.	16f/JJ	.	16f/JJ	.	.	.	.	.	.	.
!	!	!	!	!	!	!LO:LB:g=original	!	!	!	!	!	!	!	!	!	!	!
4r	.	4r	.	16e-/LL	.	16e-/LL	.	(16g/LL	.	16g/LL	.	.	.	.	.	.	.
.	.	.	.	16f/	.	16f/	.	16a/	.	16a/	.	.	.	.	.	.	.
.	.	.	.	16g/	.	16g/	.	16b-/	.	16b-/	.	.	.	.	.	.	.
.	.	.	.	16a/JJ	.	16a/JJ	.	16cc/JJ)	.	16cc/JJ	.	.	.	.	.	.	.
=56	=56	=56	=56	=56	=56	=56	=56	=56	=56	=56	=56	=56	=56	=56	=56	=56	=56
4B-\	.	4B-\	.	4b-/	.	4b-\	.	4dd\	.	4dd\	.	.	.	.	.	.	.
4r	.	4r	.	4r	.	4r	.	4r	.	4r	.	.	.	.	.	.	.
!	!	!	!	!	!	!	!	!LO:LB:g=original	!	!	!	!	!	!	!	!	!
=57:|!|:	=57:|!|:	=57:|!|:	=57:|!|:	=57:|!|:	=57:|!|:	=57:|!|:	=57:|!|:	=57:|!|:	=57:|!|:	=57:|!|:	=57:|!|:	=57:|!|:	=57:|!|:	=57:|!|:	=57:|!|:	=57:|!|:	=57:|!|:
*>H	*	*>H	*	*>H	*	*>H	*	*>H	*	*>H	*	*>H	*>H	*>H	*	*>H	*
!	!	!	!	!	!	!	!	!	!	!	!	!LO:TX:a:t=4	!LO:TX:a:t=4	!LO:TX:a:t=4.	!	!LO:TX:a:t=4.	!
!	!	!	!	!	!	!	!	!	!	!	!	!LO:N:vis=00	!LO:N:vis=00	!LO:N:vis=00	!	!LO:N:vis=00	!
4BB-/	.	4BB-/	.	16B-/LL	.	16B-/LL	.	4b- 4d/	.	4b- 4d/	.	0r	0r	0r	.	0r	.
.	.	.	.	16d/	.	16d/	.	.	.	.	.	.	.	.	.	.	.
.	.	.	.	16f/	.	16f/	.	.	.	.	.	.	.	.	.	.	.
.	.	.	.	16b-/JJ	.	16b-/JJ	.	.	.	.	.	.	.	.	.	.	.
4r	.	4r	.	16dd\LL	.	16dd/LL	.	4r	.	4r	.	.	.	.	.	.	.
.	.	.	.	16b-\	.	16b-/	.	.	.	.	.	.	.	.	.	.	.
.	.	.	.	16f\	.	16f/	.	.	.	.	.	.	.	.	.	.	.
.	.	.	.	16d\JJ	.	16d/JJ	.	.	.	.	.	.	.	.	.	.	.
!LO:LB:g=original	!	!LO:LB:g=original	!	!	!	!	!	!	!	!	!	!	!	!	!	!	!
=58	=58	=58	=58	=58	=58	=58	=58	=58	=58	=58	=58	=58	=58	=58	=58	=58	=58
4C/	.	4C/	.	16c/LL	.	16c/LL	.	4a 4f 4c/	.	4a 4f 4c/	.	.	.	.	.	.	.
.	.	.	.	16e-/	.	16e-/	.	.	.	.	.	.	.	.	.	.	.
.	.	.	.	16a/	.	16a/	.	.	.	.	.	.	.	.	.	.	.
.	.	.	.	16cc/JJ	.	16cc/JJ	.	.	.	.	.	.	.	.	.	.	.
4r	.	4r	.	16ee-\LL	.	16ee-/LL	.	4r	.	4r	.	.	.	.	.	.	.
.	.	.	.	16cc\	.	16cc/	.	.	.	.	.	.	.	.	.	.	.
.	.	.	.	16a\	.	16a/	.	.	.	.	.	.	.	.	.	.	.
.	.	.	.	16f\JJ	.	16f/JJ	.	.	.	.	.	.	.	.	.	.	.
!	!	!	!	!	!	!	!	!	!	!LO:LB:g=original	!	!	!	!	!	!	!
=59	=59	=59	=59	=59	=59	=59	=59	=59	=59	=59	=59	=59	=59	=59	=59	=59	=59
4B-\	.	4B-\	.	16d/LL	.	16d/LL	.	4b- 4d/	.	4b- 4d/	.	.	.	.	.	.	.
.	.	.	.	16f/	.	16f/	.	.	.	.	.	.	.	.	.	.	.
.	.	.	.	16e-/	.	16e-/	.	.	.	.	.	.	.	.	.	.	.
.	.	.	.	16d/JJ	.	16d/JJ	.	.	.	.	.	.	.	.	.	.	.
4BB-/	.	4BB-/	.	16e-/LL	.	16e-/LL	.	4r	.	4r	.	.	.	.	.	.	.
.	.	.	.	16f/	.	16f/	.	.	.	.	.	.	.	.	.	.	.
.	.	.	.	16g/	.	16g/	.	.	.	.	.	.	.	.	.	.	.
.	.	.	.	16a/JJ	.	16a/JJ	.	.	.	.	.	.	.	.	.	.	.
=60	=60	=60	=60	=60	=60	=60	=60	=60	=60	=60	=60	=60	=60	=60	=60	=60	=60
4B-\	.	4B-\	.	16b-\LL	.	16b-\LL	.	4b- 4d/	.	4b- 4d/	.	.	.	.	.	.	.
.	.	.	.	16cc\	.	16cc\	.	.	.	.	.	.	.	.	.	.	.
.	.	.	.	16dd\	.	16dd\	.	.	.	.	.	.	.	.	.	.	.
.	.	.	.	16ee-\JJ	.	16ee-\JJ	.	.	.	.	.	.	.	.	.	.	.
4r	.	4r	.	16ff\LL	.	16ff\LL	.	4r	.	4r	.	.	.	.	.	.	.
.	.	.	.	16gg\	.	16gg\	.	.	.	.	.	.	.	.	.	.	.
.	.	.	.	16aa\	.	16aa\	.	.	.	.	.	.	.	.	.	.	.
.	.	.	.	16bb-\JJ	.	16bb-\JJ	.	.	.	.	.	.	.	.	.	.	.
=61	=61	=61	=61	=61	=61	=61	=61	=61	=61	=61	=61	=61	=61	=61	=61	=61	=61
!LO:TX:a:t=P:problem=mixed beam	!	!	!	!	!	!	!	!	!	!	!	!	!	!	!	!	!
8BB-/L	.	8BB-\L	.	16dd\LL	.	16dd\LL	.	2f/	.	2f/	.	4.d/	4.b-\	8dd\L|	.	8ddd\L|	.
.	.	.	.	16ddd\	.	16ddd\	.	.	.	.	.	.	.	.	.	.	.
8B-\	.	8B-\	.	16dd\	.	16dd\	.	.	.	.	.	.	.	8dd\|	.	8ddd\|	.
.	.	.	.	16ddd\JJ	.	16ddd\JJ	.	.	.	.	.	.	.	.	.	.	.
8B-\	.	8B-\	.	16dd\LL	.	16dd\LL	.	.	.	.	.	.	.	(8dd\	.	(8ddd\	.
.	.	.	.	16ddd\	.	16ddd\	.	.	.	.	.	.	.	.	.	.	.
8A\J	.	8A\J	.	16cc\	.	16cc\	.	.	.	.	.	8A/	8a\	8cc\J)	.	8ccc\J)	.
.	.	.	.	16ccc\JJ	.	16ccc\JJ	.	.	.	.	.	.	.	.	.	.	.
!	!	!	!	!LO:LB:g=original	!	!LO:LB:g=original	!	!	!	!	!	!	!	!	!	!	!
=62	=62	=62	=62	=62	=62	=62	=62	=62	=62	=62	=62	=62	=62	=62	=62	=62	=62
8G\L	.	8G\L	.	16b-\LL	.	16b-\LL	.	8b-\	.	8b-\	.	4.B-/	4.g/	8b-\L|	.	8bb-\L|	.
.	.	.	.	16bb-\	.	16bb-\	.	.	.	.	.	.	.	.	.	.	.
8G\	.	8G\	.	16b-\	.	16b-\	.	8r	.	8r	.	.	.	8b-\|	.	8bb-\|	.
.	.	.	.	16bb-\JJ	.	16bb-\JJ	.	.	.	.	.	.	.	.	.	.	.
8G\	.	8G\	.	16b-\LL	.	16b-\LL	.	8b-\L	.	8b-\L	.	.	.	(8b-\	.	(8bb-\	.
.	.	.	.	16bb-\	.	16bb-\	.	.	.	.	.	.	.	.	.	.	.
8F\J	.	8F\J	.	16a\	.	16a\	.	8a\J	.	8a\J	.	8A/	8f/	8a\J)	.	8aa\J)	.
.	.	.	.	16aa\JJ	.	16aa\JJ	.	.	.	.	.	.	.	.	.	.	.
=63	=63	=63	=63	=63	=63	=63	=63	=63	=63	=63	=63	=63	=63	=63	=63	=63	=63
8BB-/L	.	8BB-/L	.	16g\LL	.	16g\LL	.	8g/	.	8g/	.	4.c/	4.g/	8g/L|	.	8gg\L|	.
.	.	.	.	16gg\	.	16gg\	.	.	.	.	.	.	.	.	.	.	.
8BB-/	.	8BB-/	.	16g\	.	16g\	.	8r	.	8r	.	.	.	8g/|	.	8gg\|	.
.	.	.	.	16gg\JJ	.	16gg\JJ	.	.	.	.	.	.	.	.	.	.	.
!	!	!	!	!LO:TX:a:t=P:problem=mixed beam	!	!LO:TX:a:t=P:problem=mixed beam	!	!	!	!	!	!	!	!	!	!	!
8BB-/	.	8BB-/	.	16g\LL	.	16g/LL	.	8en/L	.	(8en/L	.	.	.	(8g/	.	(8gg\	.
.	.	.	.	16gg\	.	16gg\	.	.	.	.	.	.	.	.	.	.	.
8C/J	.	8C/J	.	16en/	.	16en/	.	8g/J	.	8g/J)	.	8c/	8g/	8eX/J)	.	8eeX\J)	.
.	.	.	.	16ee-/JJ	.	16ee-/JJ	.	.	.	.	.	.	.	.	.	.	.
=64	=64	=64	=64	=64	=64	=64	=64	=64	=64	=64	=64	=64	=64	=64	=64	=64	=64
8F\L	.	8F\L	.	4ff 4f/	.	4ff 4f/	.	4f/	.	4f/	.	4A/	4f/	4f/	.	4ff\	.
8E-X\	.	8E-X\	.	.	.	.	.	.	.	.	.	.	.	.	.	.	.
8D\	.	8D\	.	4r	.	4r	.	4r	.	4r	.	4r	4r	4r	.	4r	.
!	!	!	!	!	!	!	!	!	!	!	!	!	!LO:TX:a:t=P:problem=po tym takcie cała linijka wykreślona	!	!	!	!
!LO:TX:a:i:t=Da Capo	!	!LO:TX:a:i:t=Da Capo Tchema	!	!LO:TX:a:i:t=Da Capo Tchema	!	!LO:TX:a:i:t=Da Capo.	!	!LO:TX:a:i:t=Da Capo \nTchema	!	!LO:TX:a:i:t=Da Capo.	!	!LO:TX:a:i:t=Da Capo\n Tchema.	!LO:TX:a:i:t=Da Capo\n Tchema	!LO:TX:b:i:t=Da Capo\n Tchema	!	!LO:TX:b:i:t=Da Capo Tchema\n Volti Subito Variatio 4ta	!
!	!	!	!	!	!	!	!	!	!	!	!	!	!LO:TX:b:i:t=Volto Subito Var 4.	!LO:TX:b:i:t=Volti Subito Variatio 4.to	!	!	!
8C\J	.	8C\J	.	.	.	.	.	.	.	.	.	.	.	.	.	.	.
!LO:LB:g=original	!	!	!	!LO:LB:g=original	!	!	!	!LO:LB:g=original	!	!LO:LB:g=original	!	!LO:PB:g=original	!LO:PB:g=original	!LO:PB:g=original	!	!LO:PB:g=original	!
=65:|!	=65:|!	=65:|!	=65:|!	=65:|!	=65:|!	=65:|!	=65:|!	=65:|!	=65:|!	=65:|!	=65:|!	=65:|!	=65:|!	=65:|!	=65:|!	=65:|!	=65:|!
*>I	*	*>I	*	*>I	*	*>I	*	*>I	*	*>I	*	*>I	*>I	*>I	*	*>I	*
!LO:TX:a:i:t=4to.	!LO:DY:t=p.	!LO:TX:a:i:t=4.	!	!LO:TX:a:i:t=4.	!	!LO:TX:a:i:t=4to	!	!LO:TX:a:i:t=4.	!	!LO:TX:a:i:t=4to	!	!LO:TX:a:i:t=4.	!LO:TX:a:i:t=4.	!LO:TX:a:i:t=4.	!	!LO:TX:a:i:t=4.	!
4BB-/	p	4BB-/	.	(16dd\LL	.	(16dd\LL	.	(16ff\LL	.	(16ff\LL	.	16b-\	16ff\	2dd\	.	2ff\	.
.	.	.	.	16b-\)	.	16b-\)	.	16dd\)	.	16dd\)	.	16r	16r	.	.	.	.
.	.	.	.	16b-\|	.	16b-\|	.	16dd\|	.	16dd\|	.	8r	8r	.	.	.	.
.	.	.	.	16b-\JJ|	.	16b-\JJ|	.	16dd\JJ|	.	16dd\JJ|	.	.	.	.	.	.	.
*	*	*	*	*tremolo	*	*	*	*	*	*	*	*	*	*	*	*	*
4r	.	4r	.	16b-\LL	.	16b-\LL|	.	16dd\LL|	.	16dd\LL|	.	4r	4r	.	.	.	.
.	.	.	.	16b-\	.	16b-\|	.	16dd\|	.	16dd\|	.	.	.	.	.	.	.
.	.	.	.	16b-\	.	16b-\|	.	16dd\|	.	16dd\|	.	.	.	.	.	.	.
.	.	.	.	16b-\JJ	.	16b-\JJ|	.	16dd\JJ|	.	16dd\JJ|	.	.	.	.	.	.	.
=66	=66	=66	=66	=66	=66	=66	=66	=66	=66	=66	=66	=66	=66	=66	=66	=66	=66
4E-\	.	4E-\	.	(16ee-\LL	.	(16ee-\LL	.	(16gg\LL	.	(16gg\LL	.	16b-\	16gg\	2ee-\	.	2gg\	.
.	.	.	.	16cc\)	.	16cc\)	.	16ee-\)	.	16ee-\)	.	16r	16r	.	.	.	.
.	.	.	.	16cc\|	.	16cc\|	.	16ee-\|	.	16ee-\|	.	8r	8r	.	.	.	.
.	.	.	.	16cc\JJ|	.	16cc\JJ|	.	16ee-\JJ|	.	16ee-\JJ|	.	.	.	.	.	.	.
*	*	*	*	*	*	*	*	*tremolo	*	*tremolo	*	*	*	*	*	*	*
4r	.	4r	.	16cc\LL	.	16cc\LL|	.	16ee-\LL|	.	16ee-\LL|	.	4r	4r	.	.	.	.
.	.	.	.	16cc\	.	16cc\|	.	16ee-\	.	16ee-\	.	.	.	.	.	.	.
.	.	.	.	16cc\	.	16cc\|	.	16ee-\	.	16ee-\	.	.	.	.	.	.	.
.	.	.	.	16cc\JJ	.	16cc\JJ|	.	16ee-\JJ	.	16ee-\JJ	.	.	.	.	.	.	.
=67	=67	=67	=67	=67	=67	=67	=67	=67	=67	=67	=67	=67	=67	=67	=67	=67	=67
*tremolo	*	*	*	*	*	*	*	*	*	*	*	*	*	*	*	*	*
8AA/L	.	8AA/L	.	(16g/LL	.	(16g/LL	.	(16ee-\LL	.	(16ee-\LL	.	16cc\	16ee-\	2cc\	.	2ee-\	.
.	.	.	.	16e-/)	.	16e-/)	.	16cc\)	.	16cc\)	.	16r	16r	.	.	.	.
8AA/	.	8AA/	.	16e-/	.	16e-/|	.	16cc\|	.	16cc\|	.	8r	8r	.	.	.	.
.	.	.	.	16e-/JJ	.	16e-/JJ|	.	16cc\JJ|	.	16cc\JJ|	.	.	.	.	.	.	.
*	*	*	*	*	*	*tremolo	*	*	*	*	*	*	*	*	*	*	*
!	!	!	!	!	!	!LO:TX:b:t=....:problem	!	!LO:TX:a:t=....:problem	!	!	!	!	!	!	!	!	!
8AA/	.	8AA/	.	16e-/LL	.	16e-/LL	.	16cc\LL	.	16cc\LL|	.	4r	4r	.	.	.	.
.	.	.	.	16e-/	.	16e-/	.	16cc\	.	16cc\	.	.	.	.	.	.	.
8AA/J	.	8AA/J	.	16e-/	.	16e-/	.	16cc\	.	16cc\	.	.	.	.	.	.	.
.	.	.	.	16e-/JJ	.	16e-/JJ	.	16cc\JJ	.	16cc\JJ	.	.	.	.	.	.	.
*	*	*	*	*Xtremolo	*	*Xtremolo	*	*Xtremolo	*	*Xtremolo	*	*	*	*	*	*	*
=68	=68	=68	=68	=68	=68	=68	=68	=68	=68	=68	=68	=68	=68	=68	=68	=68	=68
!LO:TX:a:t=P:problem=mixed beam	!	!	!	!	!	!	!	!	!	!	!	!	!	!	!	!	!
8BB-/L	.	8BB-\L	.	4d/	.	4d/	.	4b-\	.	4b-\	.	8d/L	8b-\L	4b-\	.	4b-\	.
8B-\	.	8B-\	.	.	.	.	.	.	.	.	.	16d/L	16b-\L	.	.	.	.
.	.	.	.	.	.	.	.	.	.	.	.	16d/JJ	16b-\JJ	.	.	.	.
8F\	.	8F\	.	4r	.	4r	.	4r	.	4r	.	4d/	4b-\	4r	.	4r	.
8D\J	.	8D\J	.	.	.	.	.	.	.	.	.	.	.	.	.	.	.
=69	=69	=69	=69	=69	=69	=69	=69	=69	=69	=69	=69	=69	=69	=69	=69	=69	=69
4BB-/	.	4BB-/	.	(8.ff\L	.	(8.ff\L	.	8.ddd\L	.	8.ddd\L	.	2d/	2b-\	2dd\	.	2bb-\	.
.	.	.	.	16ee-\Jk)	.	16dd\Jk)	.	16bb-\Jk	.	16bb-\Jk	.	.	.	.	.	.	.
4r	.	4r	.	(16ff\LL	.	(16ff\LL	.	16ddd'\LL	.	16ddd'\LL	.	.	.	.	.	.	.
.	.	.	.	16dd\	.	16dd\	.	16bb-'\	.	16bb-'\	.	.	.	.	.	.	.
.	.	.	.	16ff\)	.	16ff\	.	16ddd'\	.	16ddd'\	.	.	.	.	.	.	.
.	.	.	.	16dd\JJ	.	16dd\JJ)	.	16bb-'\JJ	.	16bb-'\JJ	.	.	.	.	.	.	.
=70	=70	=70	=70	=70	=70	=70	=70	=70	=70	=70	=70	=70	=70	=70	=70	=70	=70
*2\right	*	*	*	*	*	*	*	*	*	*	*	*	*	*	*	*	*
8F\L	.	8F\L	.	16cc\LL	.	(16cc\LL	.	16aa\LL	.	16aa\LL	.	2f/	2cc\	2cc\	.	2aa\	.
.	.	.	.	(16ee-\	.	16ee-\	.	16ccc\	.	16ccc\	.	.	.	.	.	.	.
8F\	.	8F\	.	16cc\	.	16cc\	.	16aa\	.	16aa\	.	.	.	.	.	.	.
.	.	.	.	16ee-\JJ)	.	16ee-\JJ)	.	16ccc\JJ	.	16ccc\JJ	.	.	.	.	.	.	.
8F\	.	8F\	.	16cc\LL	.	(16cc\LL	.	16aa\LL	.	16aa\LL	.	.	.	.	.	.	.
.	.	.	.	(16ee-\	.	16ee-\	.	16ccc\	.	16ccc\	.	.	.	.	.	.	.
8F\J	.	8F\J	.	16cc\	.	16cc\	.	16aa\	.	16aa\	.	.	.	.	.	.	.
.	.	.	.	16ee-\JJ)	.	16ee-\JJ)	.	16ccc\JJ	.	16ccc\JJ	.	.	.	.	.	.	.
*Xtremolo	*	*	*	*	*	*	*	*	*	*	*	*	*	*	*	*	*
=71	=71	=71	=71	=71	=71	=71	=71	=71	=71	=71	=71	=71	=71	=71	=71	=71	=71
4B-\	.	4B-\	.	8dd\L	.	8dd\L|	.	16bb-\LL	.	16bb-\LL	.	8e-/	8b-\	4dd\	.	4bb-\	.
.	.	.	.	.	.	.	.	16ff\	.	16ff\	.	.	.	.	.	.	.
.	.	.	.	16ff\L	.	(16ff\L	.	16ddd\	.	16ddd\	.	8r	8r	.	.	.	.
.	.	.	.	16dd\JJ	.	16dd\JJ)	.	16bb-\JJ	.	16bb-\JJ	.	.	.	.	.	.	.
4F\	.	4F\	.	8ee-\L	.	8ee-\L	.	16aa\LL	.	16aa\LL	.	4f/	8cc\	4b-\	.	4aa\	.
.	.	.	.	.	.	.	.	16ccc\	.	16ccc\	.	.	.	.	.	.	.
.	.	.	.	8ee-\J	.	8ee-\J	.	16eee-\	.	16eee-\	.	.	8r	.	.	.	.
.	.	.	.	.	.	.	.	16ccc\JJ	.	16ccc\JJ	.	.	.	.	.	.	.
!	!	!	!	!LO:LB:g=original	!	!	!	!LO:LB:g=original	!	!LO:LB:g=original	!	!	!	!	!	!	!
=72	=72	=72	=72	=72	=72	=72	=72	=72	=72	=72	=72	=72	=72	=72	=72	=72	=72
.	.	.	.	(8qqee-/	.	8qqee-/	.	.	.	.	.	.	.	.	.	.	.
4BB-/	.	4BB-/	.	4dd\)	.	4dd\	.	4bb-\	.	4bb-\	.	8d/L	8b-\L	8dd\	.	4bb-\	.
.	.	.	.	.	.	.	.	.	.	.	.	16d/L	16b-\L	4dd\	.	.	.
.	.	.	.	.	.	.	.	.	.	.	.	16d/JJ	16b-\JJ	.	.	.	.
4B-\	.	4B-\	.	4r	.	4r	.	4r	.	4r	.	4d/	4b-\	.	.	8bb-\	.
.	.	.	.	.	.	.	.	.	.	.	.	.	.	8r	.	8r	.
!	!	!LO:LB:g=original	!	!	!	!LO:LB:g=original	!	!	!	!	!	!LO:LB:g=original	!LO:LB:g=original	!	!	!	!
=73:|!|:	=73:|!|:	=73:|!|:	=73:|!|:	=73:|!|:	=73:|!|:	=73:|!|:	=73:|!|:	=73:|!|:	=73:|!|:	=73:|!|:	=73:|!|:	=73:|!|:	=73:|!|:	=73:|!|:	=73:|!|:	=73:|!|:	=73:|!|:
*>J	*	*>J	*	*>J	*	*>J	*	*>J	*	*>J	*	*>J	*>J	*>J	*	*>J	*
!	!	!	!	!	!	!	!	!	!	!	!	!LO:TX:a:t=4	!LO:TX:a:t=4.	!LO:TX:a:t=4.	!	!LO:TX:a:t=4	!
!	!	!	!	!	!	!	!	!	!	!	!	!LO:N:vis=00	!LO:N:vis=00	!LO:N:vis=00	!	!LO:N:vis=00	!
4F\	.	4F\	.	(16f/LL	.	16f/LL	.	16ff\LL	.	(16ff\LL	.	0r	0r	0r	.	0r	.
.	.	.	.	16en/	.	(16en/	.	(16een\	.	16een\	.	.	.	.	.	.	.
.	.	.	.	16e-X/	.	16e-X/	.	16ee-X\	.	16ee-X\	.	.	.	.	.	.	.
.	.	.	.	16d/JJ)	.	16d/JJ)	.	16dd\JJ)	.	16dd\JJ)	.	.	.	.	.	.	.
4r	.	4r	.	16c/LL	.	16c/LL	.	16dd\LL	.	(16cc\LL	.	.	.	.	.	.	.
.	.	.	.	16B-/	.	(16B-/	.	(16b-\	.	16b-\	.	.	.	.	.	.	.
.	.	.	.	(16A/	.	16A/	.	16a\	.	16a\	.	.	.	.	.	.	.
.	.	.	.	16c/JJ)	.	16c/JJ)	.	16cc\JJ)	.	16cc\JJ)	.	.	.	.	.	.	.
=74	=74	=74	=74	=74	=74	=74	=74	=74	=74	=74	=74	=74	=74	=74	=74	=74	=74
4BB-/	.	4BB-/	.	16B-/LL	.	16B-/LL	.	16b-\LL	.	16b-\LL	.	.	.	.	.	.	.
.	.	.	.	(16c/	.	(16c/	.	16cc\	.	16cc\	.	.	.	.	.	.	.
.	.	.	.	16d/	.	16d/	.	16dd\	.	16dd\	.	.	.	.	.	.	.
.	.	.	.	16e-/JJ)	.	16e-/JJ)	.	16ee-\JJ	.	16ee-\JJ	.	.	.	.	.	.	.
4r	.	4r	.	(16en/LL	.	16en/LL	.	(16een\LL	.	(16een\LL	.	.	.	.	.	.	.
.	.	.	.	16f/	.	(16f/	.	16ff\	.	16ff\	.	.	.	.	.	.	.
.	.	.	.	16g/	.	16g/	.	16gg\	.	16gg\	.	.	.	.	.	.	.
.	.	.	.	16f/JJ)	.	16f/JJ)	.	16ff\JJ)	.	16ff\JJ)	.	.	.	.	.	.	.
!LO:LB:g=original	!	!	!	!	!	!	!	!	!	!	!	!	!	!	!	!	!
=75	=75	=75	=75	=75	=75	=75	=75	=75	=75	=75	=75	=75	=75	=75	=75	=75	=75
4BB-/	.	4BB-/	.	16e-/LL	.	16en/LL	.	(16gg\LL	.	(16gg\LL	.	.	.	.	.	.	.
.	.	.	.	(16f/	.	(16f/	.	16aa\	.	16aa\	.	.	.	.	.	.	.
.	.	.	.	16g/	.	16g/	.	16bb-\	.	16bb-\	.	.	.	.	.	.	.
.	.	.	.	16f/JJ)	.	16f/JJ)	.	16aa\JJ)	.	16aa\JJ)	.	.	.	.	.	.	.
4C/	.	4C/	.	16g/LL	.	16g/LL	.	16bb-\LL	.	(16bb-\LL	.	.	.	.	.	.	.
.	.	.	.	(16b-/	.	(16b-/	.	(16gg\	.	16gg\	.	.	.	.	.	.	.
.	.	.	.	16a/	.	16a/	.	16ff\	.	16ff\	.	.	.	.	.	.	.
.	.	.	.	16g/JJ)	.	16g/JJ)	.	16een\JJ)	.	16een\JJ)	.	.	.	.	.	.	.
=76	=76	=76	=76	=76	=76	=76	=76	=76	=76	=76	=76	=76	=76	=76	=76	=76	=76
.	.	.	.	(8qqg/	.	(8qqg/	.	(8qqee-/	.	(8qqee-/	.	.	.	.	.	.	.
(12F\L	.	12F'\L	.	4a/)	.	4a/)	.	4ff\)	.	4ff\)	.	.	.	.	.	.	.
12c\)	.	12c\|	.	.	.	.	.	.	.	.	.	.	.	.	.	.	.
12B-\J|	.	12B-\J|	.	.	.	.	.	.	.	.	.	.	.	.	.	.	.
(12A\L	.	12A\L|	.	4r	.	4r	.	4r	.	4r	.	.	.	.	.	.	.
12G\)	.	12G\|	.	.	.	.	.	.	.	.	.	.	.	.	.	.	.
12F\J|	.	12F\J|	.	.	.	.	.	.	.	.	.	.	.	.	.	.	.
!	!	!	!	!	!	!	!	!	!	!	!	!	!	!LO:LB:g=original	!	!LO:LB:g=original	!
=77	=77	=77	=77	=77	=77	=77	=77	=77	=77	=77	=77	=77	=77	=77	=77	=77	=77
*	*	*	*	*tremolo	*	*	*	*	*	*	*	*	*	*	*	*	*
4C/	.	4C/	.	16en/LL	.	16en/LL|	.	16ggLL 16cc\	.	16ggLL 16cc\	.	2c/	2cc\	2cc\	.	2gg\	.
.	.	.	.	16e/	.	16e/|	.	16gg 16cc\	.	16gg 16cc\	.	.	.	.	.	.	.
.	.	.	.	16e/	.	16e/|	.	16gg 16cc\	.	16gg 16cc\	.	.	.	.	.	.	.
.	.	.	.	16e/	.	16e/JJ|	.	16ggJJ 16cc\	.	16ggJJ 16cc\	.	.	.	.	.	.	.
*	*	*	*	*	*	*tremolo	*	*tremolo	*	*	*	*	*	*	*	*	*
4r	.	4r	.	16e/	.	16e/LL|	.	16ggLL 16cc\	.	16ggLL 16cc\	.	.	.	.	.	.	.
.	.	.	.	16e/	.	16e/	.	16gg 16cc\	.	16gg 16cc\	.	.	.	.	.	.	.
.	.	.	.	16e/	.	16e/	.	16gg 16cc\	.	16gg 16cc\	.	.	.	.	.	.	.
.	.	.	.	16e/JJ	.	16e/JJ	.	16ggJJ 16cc\	.	16ggJJ 16cc\	.	.	.	.	.	.	.
*	*	*	*	*	*	*Xtremolo	*	*	*	*	*	*	*	*	*	*	*
=78	=78	=78	=78	=78	=78	=78	=78	=78	=78	=78	=78	=78	=78	=78	=78	=78	=78
*tremolo	*	*	*	*	*	*	*	*	*	*tremolo	*	*	*	*	*	*	*
8En\L	.	8En\L	.	16c/LL	.	16c/LL|	.	16ggLL 16b-\	.	16ggLL 16b-\	.	2B-/	2b-\	2b-\	.	2gg\	.
.	.	.	.	16c/	.	16c/|	.	16gg 16b-\	.	16gg 16b-\	.	.	.	.	.	.	.
8E\	.	8E\	.	16c/	.	16c/|	.	16gg 16b-\	.	16gg 16b-\	.	.	.	.	.	.	.
.	.	.	.	16c/	.	16c/JJ|	.	16gg 16b-\	.	16gg 16b-\	.	.	.	.	.	.	.
*	*	*	*	*	*	*tremolo	*	*	*	*	*	*	*	*	*	*	*
8E\	.	8E\	.	16c/	.	16c/LL|	.	16gg 16b-\	.	16gg 16b-\	.	.	.	.	.	.	.
.	.	.	.	16c/	.	16c/	.	16gg 16b-\	.	16gg 16b-\	.	.	.	.	.	.	.
8E\J	.	8E\J	.	16c/	.	16c/	.	16gg 16b-\	.	16gg 16b-\	.	.	.	.	.	.	.
.	.	.	.	16c/JJ	.	16c/JJ	.	16ggJJ 16b-\	.	16ggJJ 16b-\	.	.	.	.	.	.	.
*Xtremolo	*	*	*	*Xtremolo	*	*Xtremolo	*	*Xtremolo	*	*Xtremolo	*	*	*	*	*	*	*
=79	=79	=79	=79	=79	=79	=79	=79	=79	=79	=79	=79	=79	=79	=79	=79	=79	=79
8F\L	.	8F\L	.	8a\L	.	8a\L|	.	8ff\L|	.	8ff\L|	.	4.A/	4.f/	8dd\L	.	(8ff\L	.
8F\J	.	8F\	.	8cc\	.	8cc\|	.	8aa\|	.	8aa\|	.	.	.	8ff\	.	8aa\	.
8BB-/L	.	8BB-\	.	8dd\	.	8dd\|	.	8bb-\|	.	8bb-\|	.	.	.	8dd\	.	8bb-\)	.
8C/J	.	8C\J	.	8b-\J	.	8b-\J|	.	8gg\J|	.	8gg\J|	.	8c/	8a\	8cc\J	.	8gg\J	.
=80	=80	=80	=80	=80	=80	=80	=80	=80	=80	=80	=80	=80	=80	=80	=80	=80	=80
8F\L	.	8F\L	.	4a/	.	4a/	.	4ff\	.	4ff\	.	8c/L	8f/L	4ff\	.	4ff\	.
8E-X\	.	8E-X\	.	.	.	.	.	.	.	.	.	16c/L	16f/L	.	.	.	.
.	.	.	.	.	.	.	.	.	.	.	.	16c/JJ	16f/JJ	.	.	.	.
!	!	!	!	!	!	!	!	!	!	!	!	!	!LO:TX:i:t=Da Capo Tchema	!	!	!	!
8D\	.	8D\	.	4r	.	4r	.	4r	.	4r	.	4c/	4f/	4r	.	4r	.
!LO:TX:a:i:t=Da Capo	!	!LO:TX:a:i:t=Da Capo Tchema	!	!LO:TX:a:i:t=Da \nCapo \nTche\nma	!	!LO:TX:b:i:t=Da Capo.	!	!LO:TX:a:i:t=Da Ca\npo \nTchema	!	!LO:TX:a:i:t=Da Ca\npo	!	!LO:TX:a:i:t=Da Capo Tchema	!	!LO:TX:a:i:t=Da Capo Tchema	!	!LO:TX:b:i:t=Da Capo Tchema	!
8C\J	.	8C\J	.	.	.	.	.	.	.	.	.	.	.	.	.	.	.
!LO:LB:g=original	!	!LO:LB:g=original	!	!LO:PB:g=original	!	!LO:PB:g=original	!	!LO:PB:g=original	!	!LO:PB:g=original	!	!LO:LB:g=original	!LO:LB:g=original	!LO:LB:g=original	!	!LO:LB:g=original	!
=81:|!	=81:|!	=81:|!	=81:|!	=81:|!	=81:|!	=81:|!	=81:|!	=81:|!	=81:|!	=81:|!	=81:|!	=81:|!	=81:|!	=81:|!	=81:|!	=81:|!	=81:|!
*>K	*	*>K	*	*>K	*	*>K	*	*>K	*	*>K	*	*>K	*>K	*>K	*	*>K	*
!LO:TX:a:i:t=5to.	!LO:DY:t=fr&colon;	!LO:TX:a:i:t=5&colon;	!LO:DY:t=f&colon;	!LO:TX:a:i:t=5	!	!LO:TX:a:i:t=5to	!	!LO:TX:a:i:t=5.	!	!LO:TX:a:i:t=5to	!	!LO:TX:a:i:t=5.	!LO:TX:a:i:t=5.	!LO:TX:a:i:t=5.	!	!LO:TX:a:i:t=5.	!
4BB-/	f	4BB-/	f	8b- 8d/	.	8b- 8d/	.	24B-/LL	.	(24B-/LL	.	2d/	2b-\	2dd\	.	2bb-\	.
.	.	.	.	.	.	.	.	24d/	.	24d/	.	.	.	.	.	.	.
.	.	.	.	.	.	.	.	24f/JJ	.	24f/JJ)	.	.	.	.	.	.	.
.	.	.	.	8r	.	8r	.	24d/LL	.	(24d/LL	.	.	.	.	.	.	.
.	.	.	.	.	.	.	.	24f/	.	24f/	.	.	.	.	.	.	.
.	.	.	.	.	.	.	.	24b-/JJ	.	24b-/JJ)	.	.	.	.	.	.	.
4B-\	.	4B-\	.	8b- 8d/	.	8a 8d/	.	24f/LL	.	(24f/LL	.	.	.	.	.	.	.
.	.	.	.	.	.	.	.	24b-/	.	24b-/	.	.	.	.	.	.	.
.	.	.	.	.	.	.	.	24dd/JJ	.	24dd/JJ)	.	.	.	.	.	.	.
.	.	.	.	8r	.	8r	.	24b-/LL	.	(24b-\LL	.	.	.	.	.	.	.
.	.	.	.	.	.	.	.	24dd/	.	24dd\	.	.	.	.	.	.	.
.	.	.	.	.	.	.	.	24ff/JJ	.	24ff\JJ)	.	.	.	.	.	.	.
=82	=82	=82	=82	=82	=82	=82	=82	=82	=82	=82	=82	=82	=82	=82	=82	=82	=82
!	!	!	!	!LO:TUP:a:problem=klamra lukowa	!	!	!	!	!	!	!	!	!	!	!	!	!
4BB-/	.	4BB-/	.	24ff\LL	.	24ff\LL|	.	24bb-\LL	.	(24bb-\LL	.	2f/	2dd\	2dd\	.	2ff\	.
.	.	.	.	24dd\	.	(24dd\	.	24ff\	.	24ff\)	.	.	.	.	.	.	.
.	.	.	.	24b-\JJ	.	24b-\JJ)	.	24dd\JJ	.	24dd\JJ|	.	.	.	.	.	.	.
!	!	!	!	!LO:TUP:a:problem=klamra lukowa	!	!	!	!	!	!	!	!	!	!	!	!	!
.	.	.	.	24dd\LL	.	24dd\LL|	.	24ff\LL	.	(24ff\LL	.	.	.	.	.	.	.
.	.	.	.	24b-\	.	(24b-\	.	24dd\	.	24dd\)	.	.	.	.	.	.	.
.	.	.	.	24f\JJ	.	24f\JJ)	.	24b-\JJ	.	24b-\JJ|	.	.	.	.	.	.	.
*	*	*	*	*Xtuplet	*	*	*	*	*	*	*	*	*	*	*	*	*
4r	.	4r	.	24b-/LL	.	24b-/LL|	.	24dd\LL	.	(24dd\LL	.	.	.	.	.	.	.
.	.	.	.	24f/	.	(24f/	.	24b-\	.	24b-\)	.	.	.	.	.	.	.
.	.	.	.	24d/JJ	.	24d/JJ)	.	24f\JJ	.	24f\JJ|	.	.	.	.	.	.	.
.	.	.	.	24f/LL	.	24f/LL|	.	24b-/LL	.	(24b-/LL	.	.	.	.	.	.	.
.	.	.	.	24d/	.	(24d/	.	24f/	.	24f/)	.	.	.	.	.	.	.
.	.	.	.	24B-/JJ	.	24B-/JJ)	.	24d/JJ	.	24d/JJ|	.	.	.	.	.	.	.
=83	=83	=83	=83	=83	=83	=83	=83	=83	=83	=83	=83	=83	=83	=83	=83	=83	=83
!	!	!	!	!	!	!	!	!LO:TX:a:t=P:problem=mixed beam	!	!LO:TX:a:t=P:problem=mixed beam	!	!LO:TX:a:t=4	!LO:TX:a:t=4	!LO:TX:a:t=4	!	!LO:TX:a:t=4.	!
!	!	!	!	!	!	!	!	!	!	!	!	!LO:N:vis=00	!LO:N:vis=00	!LO:N:vis=00	!	!LO:N:vis=00	!
8E-\L	.	8E-\L	.	8g/L	.	8g/L	.	24e-/LL	.	24e-/LL	.	0r	0r	0r	.	0r	.
.	.	.	.	.	.	.	.	24gg\	.	24gg\	.	.	.	.	.	.	.
.	.	.	.	.	.	.	.	24e-/JJ	.	24e-/JJ	.	.	.	.	.	.	.
8D\	.	8D\	.	8f/	.	8f/	.	24d/LL	.	24d/LL	.	.	.	.	.	.	.
.	.	.	.	.	.	.	.	24ff\	.	24ff\	.	.	.	.	.	.	.
.	.	.	.	.	.	.	.	24d/JJ	.	24d/JJ	.	.	.	.	.	.	.
8C\	.	8C\	.	8e-/	.	8e-/	.	24c/LL	.	24c/LL	.	.	.	.	.	.	.
.	.	.	.	.	.	.	.	24ee-\	.	24ee-\	.	.	.	.	.	.	.
.	.	.	.	.	.	.	.	24c/JJ	.	24c/JJ	.	.	.	.	.	.	.
8BB-\J	.	8BB-\J	.	8d/J	.	8d/J	.	24B-/LL	.	24B-/LL	.	.	.	.	.	.	.
.	.	.	.	.	.	.	.	24dd\	.	24dd\	.	.	.	.	.	.	.
.	.	.	.	.	.	.	.	24B-/JJ	.	24B-/JJ	.	.	.	.	.	.	.
=84	=84	=84	=84	=84	=84	=84	=84	=84	=84	=84	=84	=84	=84	=84	=84	=84	=84
4F\	.	4F\	.	8f/L	.	8f/L	.	16A/LL	.	16A/LL	.	.	.	.	.	.	.
.	.	.	.	.	.	.	.	(16c/	.	(16c/	.	.	.	.	.	.	.
.	.	.	.	16c/L	.	(16c/L	.	16f/	.	16f/	.	.	.	.	.	.	.
.	.	.	.	16f/JJ	.	16f/JJ)	.	16a/JJ)	.	16a/JJ)	.	.	.	.	.	.	.
!LO:TX:a:t=P:problem=mixed beam	!	!	!	!	!	!	!	!	!	!	!	!	!	!	!	!	!
8FF/L	.	8FF/L	.	16a/LL	.	16a/LL	.	(16cc\LL	.	(16cc\LL	.	.	.	.	.	.	.
.	.	.	.	(16f/	.	(16f/	.	16a\	.	16a\	.	.	.	.	.	.	.
8F\J	.	8F\J	.	16b-/	.	16cc/	.	16ee-\	.	16ee-\	.	.	.	.	.	.	.
.	.	.	.	16a/JJ)	.	16a/JJ)	.	16cc\JJ)	.	16cc\JJ)	.	.	.	.	.	.	.
!	!	!	!	!	!	!	!	!LO:LB:g=original	!	!LO:LB:g=original	!	!	!	!	!	!	!
=85	=85	=85	=85	=85	=85	=85	=85	=85	=85	=85	=85	=85	=85	=85	=85	=85	=85
4B-\	.	4B-\	.	4b-\	.	4b-\	.	16b-\LL	.	16b-\LL	.	.	.	.	.	.	.
.	.	.	.	.	.	.	.	(16cc\	.	(16cc\	.	.	.	.	.	.	.
.	.	.	.	.	.	.	.	16dd\	.	16dd\	.	.	.	.	.	.	.
.	.	.	.	.	.	.	.	16ee-\JJ)	.	16ee-\JJ)	.	.	.	.	.	.	.
4BB-/	.	4BB-/	.	4r	.	4r	.	16een\LL	.	(16een\LL	.	.	.	.	.	.	.
.	.	.	.	.	.	.	.	(16ff\	.	16ff\	.	.	.	.	.	.	.
.	.	.	.	.	.	.	.	16gg\	.	16gg\)	.	.	.	.	.	.	.
.	.	.	.	.	.	.	.	16ff\JJ)	.	16ff\JJ	.	.	.	.	.	.	.
=86	=86	=86	=86	=86	=86	=86	=86	=86	=86	=86	=86	=86	=86	=86	=86	=86	=86
4BB-/	.	4BB-/	.	(16g/LL	.	16g/LL	.	16bb-\LL	.	16bb-\LL	.	.	.	.	.	.	.
.	.	.	.	16f/	.	(16f/	.	(16aa\	.	(16aa\	.	.	.	.	.	.	.
.	.	.	.	16e-/	.	16e-/	.	16gg\	.	16gg\	.	.	.	.	.	.	.
.	.	.	.	16d/JJ)	.	16d/JJ)	.	16ff\JJ)	.	16ff\JJ)	.	.	.	.	.	.	.
4r	.	4r	.	16c/LL	.	16c/LL	.	16ee-X\LL	.	16ee-X\LL	.	.	.	.	.	.	.
.	.	.	.	16B-/	.	(16B-/	.	(16dd\	.	(16dd\	.	.	.	.	.	.	.
.	.	.	.	16A/	.	16A/	.	16cc#X\	.	16cc#X\	.	.	.	.	.	.	.
.	.	.	.	16B-/JJ	.	16B-/JJ)	.	16dd\JJ)	.	16dd\JJ)	.	.	.	.	.	.	.
!	!	!	!	!LO:LB:g=original	!	!	!	!	!	!	!	!	!	!	!	!	!
=87	=87	=87	=87	=87	=87	=87	=87	=87	=87	=87	=87	=87	=87	=87	=87	=87	=87
8r	.	8r	.	2e-/	.	2e-/	.	2ccn 2e-/	.	2ccn 2e-/	.	8e-/L	8cc\L	2e-/	.	2cc\	.
8AA/L	.	8AA/L	.	.	.	.	.	.	.	.	.	16e-/L	16cc\L	.	.	.	.
.	.	.	.	.	.	.	.	.	.	.	.	16e-/JJ	16cc\JJ	.	.	.	.
8AA/	.	8AA/	.	.	.	.	.	.	.	.	.	8e-/L	8cc\L	.	.	.	.
8AA/J	.	8AA/J	.	.	.	.	.	.	.	.	.	8e-/J	8cc\J	.	.	.	.
!	!	!	!	!	!	!LO:LB:g=original	!	!	!	!	!	!	!	!	!	!	!
=88	=88	=88	=88	=88	=88	=88	=88	=88	=88	=88	=88	=88	=88	=88	=88	=88	=88
4BB-/	.	4BB-/	.	4d/	.	4d/	.	4b- 4d/	.	4b- 4d/	.	8d/L	8b-\L	4d/	.	4cc\	.
.	.	.	.	.	.	.	.	.	.	.	.	16d/L	16b-\L	.	.	.	.
.	.	.	.	.	.	.	.	.	.	.	.	16d/JJ	16b-\JJ	.	.	.	.
4r	.	4r	.	4r	.	4r	.	4r	.	4r	.	4d/	4b-\	4r	.	4r	.
=89:|!|:	=89:|!|:	=89:|!|:	=89:|!|:	=89:|!|:	=89:|!|:	=89:|!|:	=89:|!|:	=89:|!|:	=89:|!|:	=89:|!|:	=89:|!|:	=89:|!|:	=89:|!|:	=89:|!|:	=89:|!|:	=89:|!|:	=89:|!|:
*>L	*	*>L	*	*>L	*	*>L	*	*>L	*	*>L	*	*>L	*>L	*>L	*	*>L	*
!LO:TX:a:i:t=dolce	!	!LO:TX:a:i:t=dolce	!	!	!	!	!	!	!	!	!	!LO:TX:a:t=8.	!LO:TX:a:t=8.	!LO:TX:a:t=8	!	!LO:TX:a:t=8.	!
!	!	!	!	!	!	!	!	!	!	!	!	!LO:N:vis=00	!LO:N:vis=00	!LO:N:vis=00	!	!LO:N:vis=00	!
8F\L	.	8F\L	.	4.cc\	.	4.cc\	.	4.ee-\	.	4.ee-\	.	0r	0r	0r	.	0r	.
8A\	.	8A\	.	.	.	.	.	.	.	.	.	.	.	.	.	.	.
8F\	.	8F\	.	.	.	.	.	.	.	.	.	.	.	.	.	.	.
8A\J	.	8A\J	.	(16dd\LL	.	(16dd\LL	.	16ff\LL	.	(16ff\LL	.	.	.	.	.	.	.
.	.	.	.	16cc\JJ)	.	16cc\JJ)	.	16ee-\JJ	.	16ee-\JJ)	.	.	.	.	.	.	.
!	!	!LO:LB:g=original	!	!	!	!	!	!	!	!	!	!	!	!	!	!	!
=90	=90	=90	=90	=90	=90	=90	=90	=90	=90	=90	=90	=90	=90	=90	=90	=90	=90
4B-\	.	4B-\	.	16b-\LL	.	(16b-\LL	.	16dd\LL	.	16dd\LL	.	.	.	.	.	.	.
!	!	!	!	!	!	!	!	!	!	!LO:TX:a:t=e	!	!	!	!	!	!	!
!	!	!	!	!	!	!	!	!	!	!LO:SIC:s=16ff:v	!	!	!	!	!	!	!
.	.	.	.	(16dd\	.	16dd\	.	16ff\	.	16ee\	.	.	.	.	.	.	.
!	!	!	!	!	!	!	!	!	!	!LO:TX:a:t=g	!	!	!	!	!	!	!
.	.	.	.	16ff\	.	16ee-\)	.	16gg\	.	16gg\	.	.	.	.	.	.	.
.	.	.	.	16cc\JJ)	.	16cc\JJ	.	16aa\JJ	.	16aa\JJ	.	.	.	.	.	.	.
4r	.	4r	.	16dd\LL	.	(16dd\LL	.	16bb-\LL	.	16bb-\LL	.	.	.	.	.	.	.
.	.	.	.	(16cc\	.	16cc\	.	16aa\	.	16aa\	.	.	.	.	.	.	.
.	.	.	.	16dd\	.	16dd\	.	16bb-\	.	16bb-\	.	.	.	.	.	.	.
.	.	.	.	16ee-\JJ)	.	16ee-\JJ)	.	16ccc\JJ	.	16aa\JJ	.	.	.	.	.	.	.
!LO:LB:g=original	!	!	!	!	!	!	!	!LO:LB:g=original	!	!	!	!	!	!	!	!	!
=91	=91	=91	=91	=91	=91	=91	=91	=91	=91	=91	=91	=91	=91	=91	=91	=91	=91
!LO:TX:a:t=P:problem=mixed beam	!	!	!	!	!	!	!	!	!	!	!	!	!	!	!	!	!
8BB-/L	.	8BB-\L	.	8dd\L	.	8dd\L	.	8bb-\L	.	8bb-\L	.	.	.	.	.	.	.
(>8B-\	.	(8B-\	.	8dd\	.	8dd\	.	(8ff\	.	(8ff\	.	.	.	.	.	.	.
8A\	.	8A\	.	8cc\	.	8cc\	.	8ee-\	.	8ee-\)	.	.	.	.	.	.	.
8B-\J)	.	8B-\J)	.	8b-\J	.	8b-\J	.	8dd\J)	.	8dd\J	.	.	.	.	.	.	.
!	!	!	!	!	!	!	!	!	!	!LO:LB:g=original	!	!	!	!	!	!	!
=92	=92	=92	=92	=92	=92	=92	=92	=92	=92	=92	=92	=92	=92	=92	=92	=92	=92
8F\L	.	8F\L|	.	8.b-\L	.	8.b-\L	.	8.dd\L	.	(8.dd\L	.	.	.	.	.	.	.
8F\	.	(8F\	.	.	.	.	.	.	.	.	.	.	.	.	.	.	.
.	.	.	.	(32cc\LL	.	(32cc\LL	.	(32ee-\LL	.	32ee-\LL)	.	.	.	.	.	.	.
.	.	.	.	32b-\JJJ)	.	32b-\JJJ)	.	32dd\JJJ)	.	32dd\JJJ	.	.	.	.	.	.	.
8A\	.	8A\	.	8a\	.	8a\	.	4cc\	.	4cc\	.	.	.	.	.	.	.
8F\J	.	8F\J)	.	8r	.	8r	.	.	.	.	.	.	.	.	.	.	.
=93	=93	=93	=93	=93	=93	=93	=93	=93	=93	=93	=93	=93	=93	=93	=93	=93	=93
!	!	!	!	!	!	!	!	!	!	!	!	!LO:N:vis=00	!LO:N:vis=00	!LO:N:vis=00	!	!LO:N:vis=00	!
8C/	.	8C\	.	8en 8G/	.	8en 8G/	.	24bb-\LL	.	(24bb-\LL	.	0r	0r	0r	.	0r	.
.	.	.	.	.	.	.	.	(24gg\	.	24gg\)	.	.	.	.	.	.	.
.	.	.	.	.	.	.	.	24een\JJ)	.	24een\JJ|	.	.	.	.	.	.	.
8r	.	8r	.	8r	.	8r	.	24gg\LL	.	(24gg\LL	.	.	.	.	.	.	.
.	.	.	.	.	.	.	.	(24ee\	.	24ee\)	.	.	.	.	.	.	.
.	.	.	.	.	.	.	.	24cc\JJ)	.	24cc\JJ|	.	.	.	.	.	.	.
8C/	.	8BB-\	.	8e 8G/	.	8e 8d/	.	24ee\LL	.	(24ee\LL	.	.	.	.	.	.	.
.	.	.	.	.	.	.	.	(24cc\	.	24cc\)	.	.	.	.	.	.	.
.	.	.	.	.	.	.	.	24g\JJ)	.	24g\JJ|	.	.	.	.	.	.	.
8r	.	8r	.	8r	.	8r	.	(24cc/LL	.	(24cc/LL	.	.	.	.	.	.	.
.	.	.	.	.	.	.	.	24g/	.	24g/)	.	.	.	.	.	.	.
.	.	.	.	.	.	.	.	24en/JJ)	.	24en/JJ|	.	.	.	.	.	.	.
!	!	!	!	!LO:LB:g=original	!	!	!	!	!	!	!	!	!	!	!	!	!
=94	=94	=94	=94	=94	=94	=94	=94	=94	=94	=94	=94	=94	=94	=94	=94	=94	=94
8C/	.	8C\	.	8e- 8G/	.	8e- 8G/	.	24c/LL	.	24c/LL	.	.	.	.	.	.	.
.	.	.	.	.	.	.	.	24en/	.	24en/	.	.	.	.	.	.	.
.	.	.	.	.	.	.	.	24c/JJ	.	24c/JJ	.	.	.	.	.	.	.
8r	.	8r	.	8r	.	8r	.	24c/LL	.	24c/LL	.	.	.	.	.	.	.
.	.	.	.	.	.	.	.	24e/	.	24e/	.	.	.	.	.	.	.
.	.	.	.	.	.	.	.	24c/JJ	.	24c/JJ	.	.	.	.	.	.	.
8CC/L	.	8CC/L	.	8g/L	.	8g/L	.	24B-X/LL	.	24B-/LL	.	.	.	.	.	.	.
.	.	.	.	.	.	.	.	24e/	.	24en/	.	.	.	.	.	.	.
.	.	.	.	.	.	.	.	24B-/JJ	.	24B-/JJ	.	.	.	.	.	.	.
8C/J	.	8C/J	.	8g/J	.	8g/J	.	24B-/LL	.	24B-/LL	.	.	.	.	.	.	.
.	.	.	.	.	.	.	.	24e/	.	24e/	.	.	.	.	.	.	.
.	.	.	.	.	.	.	.	24B-/JJ	.	24B-/JJ	.	.	.	.	.	.	.
=95	=95	=95	=95	=95	=95	=95	=95	=95	=95	=95	=95	=95	=95	=95	=95	=95	=95
8F\	.	8F\	.	(8f/L	.	8f/L	.	16A/LL	.	16A/LL	.	.	.	.	.	.	.
.	.	.	.	.	.	.	.	16f/	.	16f/	.	.	.	.	.	.	.
8r	.	8r	.	8a/J)	.	8a/J	.	16cc/	.	16cc/	.	.	.	.	.	.	.
.	.	.	.	.	.	.	.	16cc/JJ	.	16cc/JJ	.	.	.	.	.	.	.
!	!	!	!	!	!	!	!	!	!	!LO:TX:a:t=P:problem=mixed beam	!	!	!	!	!	!	!
8BB-/L	.	8BB-/L	.	(8b-/L	.	8b-/L	.	16B-/LL	.	16B-/LL	.	.	.	.	.	.	.
.	.	.	.	.	.	.	.	16dd/	.	16dd\	.	.	.	.	.	.	.
8C/J	.	8C/J	.	8g/J)	.	8g/J	.	16c/	.	16c/	.	.	.	.	.	.	.
.	.	.	.	.	.	.	.	16een/JJ	.	16een\JJ	.	.	.	.	.	.	.
!	!	!	!	!	!	!LO:LB:g=original	!	!	!	!	!	!	!	!	!	!	!
=96	=96	=96	=96	=96	=96	=96	=96	=96	=96	=96	=96	=96	=96	=96	=96	=96	=96
.	.	.	.	(4qqg/	.	8qqg/	.	(16qqee-/	.	(8qqee-/	.	.	.	.	.	.	.
8.F\L	.	8.F\L	.	4a/)	.	4a/	.	4ff\)	.	4ff\)	.	.	.	.	.	.	.
16G\Jk	.	16G\Jk	.	.	.	.	.	.	.	.	.	.	.	.	.	.	.
16F\LL	.	(16F\LL	.	4r	.	4r	.	4r	.	4r	.	.	.	.	.	.	.
16E-X\	.	16E-X\	.	.	.	.	.	.	.	.	.	.	.	.	.	.	.
16D\	.	16D\	.	.	.	.	.	.	.	.	.	.	.	.	.	.	.
!LO:TX:a:i:t=Da Capo	!	!LO:TX:a:i:t=Da Capo Tchema	!	!LO:TX:a:i:t=Da Capo Tchema	!	!LO:TX:a:i:t=Da Capo	!	!LO:TX:a:i:t=Da Ca\npo \nTche\nma	!	!LO:TX:b:i:t=Da Capo	!	!LO:TX:a:i:t=Da Capo Tchema	!LO:TX:a:i:t=Da Capo Tchema	!LO:TX:a:i:t=Da Capo Tchema	!	!LO:TX:a:i:t=Da Capo Tchema	!
16C\JJ	.	16C\JJ)	.	.	.	.	.	.	.	.	.	.	.	.	.	.	.
!LO:PB:g=original	!	!LO:LB:g=original	!	!	!	!	!	!LO:PB:g=original	!	!LO:LB:g=original	!	!LO:PB:g=original	!LO:PB:g=original	!LO:LB:g=original	!	!LO:PB:g=original	!
=97:|!	=97:|!	=97:|!	=97:|!	=97:|!	=97:|!	=97:|!	=97:|!	=97:|!	=97:|!	=97:|!	=97:|!	=97:|!	=97:|!	=97:|!	=97:|!	=97:|!	=97:|!
*>M	*	*>M	*	*>M	*	*>M	*	*>M	*	*>M	*	*>M	*>M	*>M	*	*>M	*
*M3/4	*	*M3/4	*	*M3/4	*	*M3/4	*	*M3/4	*	*M3/4	*	*M3/4	*M3/4	*M3/4	*	*M3/4	*
!	!	!	!	!	!	!LO:TX:a:i:t=Adagio	!	!	!	!	!	!	!	!	!	!	!
!LO:TX:a:i:t=Adagio	!	!	!	!LO:TX:a:t=P:problem=koniec partii	!	!LO:TX:a:i:t=Recitativo	!	!LO:TX:a:t=P:problem=koniec partii	!	!LO:TX:a:i:t=Recitativo	!	!	!	!	!	!	!
!LO:TX:a:i:t=6 to Recitativo	!LO:DY:t=p.	!LO:TX:a:i:t=Recitativo Adagio	!	!	!	!LO:TX:a:i:t=6te	!	!	!	!LO:TX:a:i:t=Adagio	!	!LO:TX:a:t=P:problem=koniec partii	!LO:TX:a:t=P:problem=koniec partii	!LO:TX:a:t=P:problem=koniec partii	!	!LO:TX:a:t=P:problem=koniec partii	!
2BB-/	p	2BB-/	.	2.ryy	.	4.b-\	.	2.ryy	.	4.dd\	.	2.ryy	2.ryy	2.ryy	.	2.ryy	.
.	.	.	.	.	.	(24cc\LL	.	.	.	(24ee-\LL	.	.	.	.	.	.	.
.	.	.	.	.	.	24b-\	.	.	.	24dd\	.	.	.	.	.	.	.
.	.	.	.	.	.	24cc\JJ)	.	.	.	24ee-\JJ)	.	.	.	.	.	.	.
4r	.	4r	.	.	.	32cc#X\LLL	.	.	.	32een\LLL	.	.	.	.	.	.	.
.	.	.	.	.	.	32dd\	.	.	.	(32ff\	.	.	.	.	.	.	.
.	.	.	.	.	.	32ee-X\	.	.	.	32gg\)	.	.	.	.	.	.	.
.	.	.	.	.	.	32dd\JJJ	.	.	.	32ff\JJJ	.	.	.	.	.	.	.
.	.	.	.	.	.	8r	.	.	.	8r	.	.	.	.	.	.	.
=98	=98	=98	=98	=98	=98	=98	=98	=98	=98	=98	=98	=98	=98	=98	=98	=98	=98
2BB-/	.	2BB-/	.	2.ryy	.	2dd 2f/	.	2.ryy	.	4.bb-\	.	2.ryy	2.ryy	2.ryy	.	2.ryy	.
.	.	.	.	.	.	.	.	.	.	16aa\LL	.	.	.	.	.	.	.
.	.	.	.	.	.	.	.	.	.	16bb-\JJ	.	.	.	.	.	.	.
4r	.	4r	.	.	.	4r	.	.	.	24ddd\LL	.	.	.	.	.	.	.
.	.	.	.	.	.	.	.	.	.	24aa\	.	.	.	.	.	.	.
.	.	.	.	.	.	.	.	.	.	24bb-\JJ	.	.	.	.	.	.	.
.	.	.	.	.	.	.	.	.	.	8r	.	.	.	.	.	.	.
=99	=99	=99	=99	=99	=99	=99	=99	=99	=99	=99	=99	=99	=99	=99	=99	=99	=99
*	*	*2\right	*	*	*	*	*	*	*	*	*	*	*	*	*	*	*
!	!	!	!	!	!	!	!	!	!	!LO:TX:a:t=P:problem=nuta zamazana, być może 4.cc	!	!	!	!	!	!	!
2F\	.	2F\	.	2.ryy	.	4.a/	.	2.ryy	.	(4.b-\	.	2.ryy	2.ryy	2.ryy	.	2.ryy	.
.	.	.	.	.	.	24b-/LL	.	.	.	24dd\LL	.	.	.	.	.	.	.
.	.	.	.	.	.	24a/	.	.	.	24cc\	.	.	.	.	.	.	.
.	.	.	.	.	.	24b-/JJ	.	.	.	24dd\JJ	.	.	.	.	.	.	.
4r	.	4r	.	.	.	(16cc/LL	.	.	.	16ee-\LL	.	.	.	.	.	.	.
.	.	.	.	.	.	16b-/	.	.	.	16dd\)	.	.	.	.	.	.	.
.	.	.	.	.	.	16a/	.	.	.	16cc\	.	.	.	.	.	.	.
.	.	.	.	.	.	16b-/JJ)	.	.	.	16dd\JJ	.	.	.	.	.	.	.
!	!	!	!	!	!	!	!	!	!	!LO:LB:g=original	!	!	!	!	!	!	!
=100	=100	=100	=100	=100	=100	=100	=100	=100	=100	=100	=100	=100	=100	=100	=100	=100	=100
8F\	.	8F\	.	2.ryy	.	16cc\LL	.	2.ryy	.	(16ee-\LL	.	2.ryy	2.ryy	2.ryy	.	2.ryy	.
.	.	.	.	.	.	16a\JJ	.	.	.	16cc\JJ)	.	.	.	.	.	.	.
8r	.	8r	.	.	.	8r	.	.	.	8r	.	.	.	.	.	.	.
!	!	!	!	!	!	!LO:LB:g=original	!	!	!	!	!	!	!	!	!	!	!
4.AA;/	.	4.AA;/	.	.	.	4ee-;\	.	.	.	4gg;\	.	.	.	.	.	.	.
.	.	.	.	.	.	16cc\	.	.	.	8ee-\	.	.	.	.	.	.	.
.	.	.	.	.	.	8ryy	.	.	.	.	.	.	.	.	.	.	.
8ryy	.	8ryy	.	.	.	.	.	.	.	8r	.	.	.	.	.	.	.
.	.	.	.	.	.	16r	.	.	.	.	.	.	.	.	.	.	.
=101	=101	=101	=101	=101	=101	=101	=101	=101	=101	=101	=101	=101	=101	=101	=101	=101	=101
!	!	!	!	!	!	!LO:TX:a:t=P:problem=dziwny znaczek nad nutą	!	!	!	!	!	!	!	!	!	!	!
8BB-/	.	8BB-/	.	2.ryy	.	16b-\LL	.	2.ryy	.	24dd\LL|	.	2.ryy	2.ryy	2.ryy	.	2.ryy	.
.	.	.	.	.	.	.	.	.	.	24ee-\|	.	.	.	.	.	.	.
.	.	.	.	.	.	16cc\|	.	.	.	.	.	.	.	.	.	.	.
.	.	.	.	.	.	.	.	.	.	24ff\JJ|	.	.	.	.	.	.	.
8r	.	8r	.	.	.	16dd\JJ|	.	.	.	16r	.	.	.	.	.	.	.
.	.	.	.	.	.	16r	.	.	.	16.bb-\LL	.	.	.	.	.	.	.
!	!	!	!	!	!	!LO:TX:a:t=P:problem=dziwny znaczek nad nutą	!	!	!	!	!	!	!	!	!	!	!
8BB-/	.	8BB-/	.	.	.	16.dd\LL	.	.	.	.	.	.	.	.	.	.	.
.	.	.	.	.	.	.	.	.	.	32ccc\K	.	.	.	.	.	.	.
.	.	.	.	.	.	.	.	.	.	16ddd\JJ	.	.	.	.	.	.	.
.	.	.	.	.	.	32ee-'\K	.	.	.	.	.	.	.	.	.	.	.
8r	.	8r	.	.	.	16ff'\JJ	.	.	.	8r	.	.	.	.	.	.	.
.	.	.	.	.	.	16r	.	.	.	.	.	.	.	.	.	.	.
!LO:LB:g=original	!	!	!	!	!	!	!	!	!	!	!	!	!	!	!	!	!
4BB-/	.	4BB-/	.	.	.	(8.ff\L	.	.	.	8.ddd\L	.	.	.	.	.	.	.
.	.	.	.	.	.	16dd\Jk)	.	.	.	16bb-\Jk	.	.	.	.	.	.	.
=102	=102	=102	=102	=102	=102	=102	=102	=102	=102	=102	=102	=102	=102	=102	=102	=102	=102
2BB-/	.	2BB-/	.	2.ryy	.	4.dd\	.	2.ryy	.	4.fff\	.	2.ryy	2.ryy	2.ryy	.	2.ryy	.
.	.	.	.	.	.	(32cc\LLL	.	.	.	32eee-\LLL	.	.	.	.	.	.	.
.	.	.	.	.	.	32b-\	.	.	.	(32ddd\	.	.	.	.	.	.	.
.	.	.	.	.	.	32a\	.	.	.	32ccc\	.	.	.	.	.	.	.
.	.	.	.	.	.	32b-\JJJ)	.	.	.	32ddd\JJJ)	.	.	.	.	.	.	.
4F;\	.	4F;\	.	.	.	4a;\	.	.	.	4ccc;\	.	.	.	.	.	.	.
.	.	.	.	.	.	.	.	.	.	(16qqccc/LL	.	.	.	.	.	.	.
.	.	.	.	.	.	.	.	.	.	16qqddd/	.	.	.	.	.	.	.
.	.	.	.	.	.	.	.	.	.	16qqccc/	.	.	.	.	.	.	.
.	.	.	.	.	.	.	.	.	.	16qqddd/JJ)	.	.	.	.	.	.	.
=103	=103	=103	=103	=103	=103	=103	=103	=103	=103	=103	=103	=103	=103	=103	=103	=103	=103
.	.	.	.	.	.	(32qqaa/LLL	.	.	.	.	.	.	.	.	.	.	.
.	.	.	.	.	.	32qqbb-/	.	.	.	.	.	.	.	.	.	.	.
.	.	.	.	.	.	32qqaa/	.	.	.	.	.	.	.	.	.	.	.
.	.	.	.	.	.	32qqbb-/JJJ)	.	.	.	.	.	.	.	.	.	.	.
!LO:TX:a:t=1	!	!LO:TX:a:t=1	!	!	!	!	!	!	!	!	!	!	!	!	!	!	!
2.r	.	2.r	.	2.ryy	.	8ccc\L	.	2.ryy	.	8eee-\L	.	2.ryy	2.ryy	2.ryy	.	2.ryy	.
.	.	.	.	.	.	(8bb-\	.	.	.	(8ddd\	.	.	.	.	.	.	.
.	.	.	.	.	.	8aa\	.	.	.	8ccc\	.	.	.	.	.	.	.
.	.	.	.	.	.	8gg\	.	.	.	8bb-\	.	.	.	.	.	.	.
.	.	.	.	.	.	8ff\)	.	.	.	8aa\	.	.	.	.	.	.	.
.	.	.	.	.	.	8cc\J	.	.	.	8gg\J)	.	.	.	.	.	.	.
=104	=104	=104	=104	=104	=104	=104	=104	=104	=104	=104	=104	=104	=104	=104	=104	=104	=104
4F\	.	4F\	.	2.ryy	.	4a/	.	2.ryy	.	4ff\	.	2.ryy	2.ryy	2.ryy	.	2.ryy	.
4r	.	4r	.	.	.	4r	.	.	.	4r	.	.	.	.	.	.	.
4r	.	4r	.	.	.	4r	.	.	.	4r	.	.	.	.	.	.	.
!	!	!	!	!	!	!	!	!	!	!LO:LB:g=original	!	!	!	!	!	!	!
=105	=105	=105	=105	=105	=105	=105	=105	=105	=105	=105	=105	=105	=105	=105	=105	=105	=105
!LO:TX:a:t=2.	!	!LO:TX:a:t=2.	!	!	!	!LO:TX:a:t=2	!	!	!	!LO:TX:a:t=1	!	!	!	!	!	!	!
!LO:N:vis=0	!	!LO:N:vis=0	!	!	!	!LO:N:vis=0	!	!	!	!	!	!	!	!	!	!	!
1.r	.	1.r	.	2.ryy	.	1.r	.	2.ryy	.	2.r	.	2.ryy	2.ryy	2.ryy	.	2.ryy	.
=106	=106	=106	=106	=106	=106	=106	=106	=106	=106	=106	=106	=106	=106	=106	=106	=106	=106
.	.	.	.	2.ryy	.	.	.	2.ryy	.	(4ff\	.	2.ryy	2.ryy	2.ryy	.	2.ryy	.
!	!	!	!	!	!	!	!	!	!	!LO:TX:b:t=aſsai	!	!	!	!	!	!	!
.	.	.	.	.	.	.	.	.	.	12gg\L	.	.	.	.	.	.	.
.	.	.	.	.	.	.	.	.	.	12ff\	.	.	.	.	.	.	.
.	.	.	.	.	.	.	.	.	.	12gg\J)	.	.	.	.	.	.	.
.	.	.	.	.	.	.	.	.	.	(16ff\LL	.	.	.	.	.	.	.
.	.	.	.	.	.	.	.	.	.	16ee-\)	.	.	.	.	.	.	.
.	.	.	.	.	.	.	.	.	.	16cc\	.	.	.	.	.	.	.
!LO:TX:a:i:t=Tchema Da Capo	!	!LO:TX:b:i:t=Tchema Da Capo \nAndante	!	!	!	!LO:TX:b:i:t=Da Capo Thema	!	!	!	!LO:TX:b:i:t=Thema Da Capo.	!	!	!	!	!	!	!
!LO:TX:b:i:t=Finis	!	!	!	!	!	!LO:TX:b:i:t=Finis	!	!	!	!	!	!	!	!	!	!	!
.	.	.	.	.	.	.	.	.	.	16a\JJ	.	.	.	.	.	.	.
=:|!	=:|!	=:|!	=:|!	=:|!	=:|!	=:|!	=:|!	=:|!	=:|!	=:|!	=:|!	=:|!	=:|!	=:|!	=:|!	=:|!	=:|!
*-	*-	*-	*-	*-	*-	*-	*-	*-	*-	*-	*-	*-	*-	*-	*-	*-	*-
!!!system-decoration: [g1][g2][g3]
!!!RDF**kern: > = above
!!!RDF**dynam: < = "cres", fontstyle = "italic"
!!!AIN: 2 clars 2 cor 2 empty 4 violn
!!!ENC: Marta Lawrence
!!!END: 2020-11-12
!!!ENC: Berenika Jozajtis
!!!END: 2020-04-30
!!!RDF**kern: | = vertical stroke
